;Sliced by ideaMaker 4.2.1.5321, 2024-02-10 22:29:24 UTC+0000
;Dimension: 180.000 180.000 180.000 0.400
;Plate Shape: 0
;Origin Center: 0
;Extruder Offset #1: 25.000 0.000
;Filament Diameter #1: 1.750
;Filament Diameter #2: 1.750
;Filament Compensation #1: 100.00
;Filament Compensation #2: 90.00
;Filament Density #1: 1240.00
;Filament Density #2: 1240.00
;Bounding Box: 66.000 114.000 63.000 117.000 0.000 41.600
;Model Gap: 0.000
M221 T0 S100.00
M140 S70.00
M104 T0 S215.00
M109 T0 S215.00
T0
M190 S70.00
M190 S0
M109 S0
START_PRINT EXTRUDER_TEMP=215 BED_TEMP=70 MESH_DO=0
;------------------------------------------------------------------------------------
; - KINGROON START CODE
;G21 ; Set to metric values
;G90 ; Absolute positioning
;M82 ; Set extruder to absolute mode
;M107 ; Start with the fan off
;
;G28 X0 Y0 Z0 ; Home all axes to min endstops
;; G29 ; if using BLTOUCH leveling
;G0 Z2.0 ; Move Z Axis up little to prevent scratching the heatbed
;G0 X5.0 Y8.0 ; Move XY to start position as fast as possible
;G0 Z0.3 ; Move Z axis to start position as fast as possible
;G92 E0 ; Reset Extruder
;G1 X85.0 E20 F1000.0 ; Draw the purge line
;G1 Z3.0 F1000.0 ; Move Z Axis up
;G1 X90 F4000 ; Quickly wipe away from the filament line
;G92 E0 ; Reset Extruder
;M300 S300 P1000 ; Play a 300Hz beep sound for 1000 milliseconds
;M117 Printing... ; Display "Printing..."
;G5 ; Start printing
;G28              			; home all axes
;M83            			; set extrusion to relative
;M117 Purge extruder
;G1 Z5 F3000            		; raise Z
;G92 E0 ;Reset Extruder
;G91 ;Relative positioning
;G1 E30 F2400 ;Introduce filament in the nozzle
;G90 ;Absolute positionning
;G92 E0 ;Reset Extruder
;G1 X5 Y5 Z0.2 F3000          	; go intro start pos
;G1 X5 Y5 Z0.2 F800.0
;G1 X60 Z0.2 F1500.0 E15
;G1 X10.1 Y120.0 Z0.2 F5000.0
;G1 X10.1 Y5 Z0.28 F1500.0 E30
;G1 X60 E9 F800        		; thick line
;G1 X90 E5 F1000          		; medium line
;G1 X120 E3.5 F1200        	  	; slim line
;G1 X118 E-0.2 Z0.5 F1500        	; wipe
;G1 X120 Z0.2 E9 F800        		; thick line
;G1 X5 Z0.2 E9 F800          		; medium line
;G1 X120 Z0.2 E3.5 F1200        	  	; slim line
;G1 X118 E-0.2 Z0.5 F1500        	; wipe
;G92 E0              		; reset extruder
;TOTAL_NUM: 1
;PRINTING_TIME: 0
;REMAINING_TIME: 2511
M83
;LAYER:0
;Z:0.200
;HEIGHT:0.200
M106 S0
;PRINTING: NON-OBJECT
;PRINTING_ID: -1
G1 F2400 E-0.4000
G0 F9000 X67.240 Y63.972
G0 F900 Z0.200
G0 F9000 X67.312 Y64.040
;TYPE:SKIRT
;WIDTH:0.400
G1 F2400 E0.4000
G1 F1500 X67.757 Y63.690 E0.0188
G1 X68.300 Y63.382 E0.0208
G1 X68.830 Y63.177 E0.0189
G1 X69.322 Y63.059 E0.0168
G1 X70.000 Y63.000 E0.0226
G1 X108.528 Y63.001 E1.2814
G1 X109.119 Y63.050 E0.0197
G1 X109.613 Y63.160 E0.0168
G1 X110.093 Y63.333 E0.0170
G1 X110.694 Y63.658 E0.0227
G1 X111.143 Y64.000 E0.0188
G1 X111.502 Y64.359 E0.0169
G1 X111.812 Y64.759 E0.0168
G1 X112.093 Y65.246 E0.0187
G1 X112.339 Y65.884 E0.0227
G1 X112.459 Y66.441 E0.0190
G1 X112.500 Y67.000 E0.0186
G1 X112.500 Y103.888 E1.2269
G1 X112.643 Y104.000 E0.0060
G1 X113.037 Y104.399 E0.0187
G1 X113.342 Y104.804 E0.0169
G1 X113.593 Y105.246 E0.0169
G1 X113.822 Y105.827 E0.0208
G1 X113.941 Y106.322 E0.0169
G1 X114.000 Y107.000 E0.0226
G1 X114.000 Y113.000 E0.1996
G1 X113.966 Y113.506 E0.0169
G1 X113.839 Y114.116 E0.0207
G1 X113.642 Y114.649 E0.0189
G1 X113.376 Y115.142 E0.0186
G1 X113.076 Y115.553 E0.0169
G1 X112.688 Y115.960 E0.0187
G1 X112.243 Y116.310 E0.0188
G1 X111.700 Y116.618 E0.0208
G1 X111.170 Y116.823 E0.0189
G1 X110.678 Y116.941 E0.0168
G1 X110.000 Y117.000 E0.0226
G1 X70.000 Y117.000 E1.3304
G1 X69.378 Y116.949 E0.0208
G1 X68.827 Y116.822 E0.0188
G1 X68.302 Y116.620 E0.0187
G1 X67.904 Y116.405 E0.0150
G1 X67.447 Y116.076 E0.0187
G1 X67.040 Y115.688 E0.0187
G1 X66.690 Y115.243 E0.0188
G1 X66.382 Y114.700 E0.0208
G1 X66.177 Y114.170 E0.0189
G1 X66.059 Y113.678 E0.0168
G1 X66.000 Y113.000 E0.0226
G1 X66.000 Y67.000 E1.5300
G1 X66.051 Y66.378 E0.0208
G1 X66.178 Y65.827 E0.0188
G1 X66.380 Y65.302 E0.0187
G1 X66.595 Y64.904 E0.0150
G1 X66.924 Y64.447 E0.0187
G1 X67.243 Y64.112 E0.0154
G0 F1500 X67.312 Y64.040
G0 F9000 X67.528 Y64.249
G0 F9000 X67.600 Y64.318
G1 F1500 X68.002 Y64.006 E0.0169
G1 X68.495 Y63.731 E0.0188
G1 X68.971 Y63.551 E0.0169
G1 X69.412 Y63.449 E0.0151
G1 X70.000 Y63.400 E0.0196
G1 X108.528 Y63.401 E1.2814
G1 X109.035 Y63.441 E0.0169
G1 X109.477 Y63.536 E0.0150
G1 X109.957 Y63.709 E0.0170
G1 X110.454 Y63.978 E0.0188
G1 X110.860 Y64.283 E0.0169
G1 X111.219 Y64.642 E0.0169
G1 X111.494 Y65.002 E0.0151
G1 X111.745 Y65.444 E0.0169
G1 X111.949 Y65.971 E0.0188
G1 X112.060 Y66.471 E0.0170
G1 X112.100 Y67.000 E0.0176
G1 X112.100 Y104.087 E1.2335
G1 X112.360 Y104.283 E0.0108
G1 X112.719 Y104.642 E0.0169
G1 X112.994 Y105.002 E0.0151
G1 X113.245 Y105.444 E0.0169
G1 X113.449 Y105.971 E0.0188
G1 X113.551 Y106.412 E0.0151
G1 X113.600 Y107.000 E0.0196
G1 X113.600 Y113.000 E0.1996
G1 X113.567 Y113.479 E0.0160
G1 X113.448 Y114.032 E0.0188
G1 X113.268 Y114.508 E0.0169
G1 X113.053 Y114.906 E0.0150
G1 X112.753 Y115.317 E0.0169
G1 X112.400 Y115.682 E0.0169
G1 X111.998 Y115.994 E0.0169
G1 X111.505 Y116.269 E0.0188
G1 X111.029 Y116.449 E0.0169
G1 X110.588 Y116.551 E0.0151
G1 X110.000 Y116.600 E0.0196
G1 X70.000 Y116.600 E1.3304
G1 X69.465 Y116.559 E0.0178
G1 X68.968 Y116.448 E0.0169
G1 X68.492 Y116.268 E0.0169
G1 X68.094 Y116.053 E0.0150
G1 X67.683 Y115.753 E0.0169
G1 X67.318 Y115.400 E0.0169
G1 X67.006 Y114.998 E0.0169
G1 X66.731 Y114.505 E0.0188
G1 X66.551 Y114.029 E0.0169
G1 X66.449 Y113.588 E0.0151
G1 X66.400 Y113.000 E0.0196
G1 X66.400 Y67.000 E1.5300
G1 X66.441 Y66.465 E0.0178
G1 X66.552 Y65.968 E0.0169
G1 X66.732 Y65.492 E0.0169
G1 X66.947 Y65.094 E0.0150
G1 X67.247 Y64.683 E0.0169
G1 X67.531 Y64.389 E0.0136
G0 F1500 X67.600 Y64.318
G0 F9000 X67.814 Y64.529
G0 F9000 X67.885 Y64.599
G1 F1500 X68.245 Y64.324 E0.0151
G1 X68.639 Y64.104 E0.0150
G1 X69.061 Y63.941 E0.0150
G1 X69.502 Y63.839 E0.0151
G1 X70.000 Y63.800 E0.0166
G1 X108.500 Y63.800 E1.2805
G1 X108.951 Y63.832 E0.0150
G1 X109.393 Y63.927 E0.0150
G1 X109.818 Y64.084 E0.0151
G1 X110.216 Y64.299 E0.0150
G1 X110.579 Y64.568 E0.0150
G1 X110.901 Y64.885 E0.0150
G1 X111.176 Y65.245 E0.0151
G1 X111.396 Y65.639 E0.0150
G1 X111.559 Y66.061 E0.0150
G1 X111.661 Y66.502 E0.0151
G1 X111.700 Y67.000 E0.0166
G1 X111.700 Y104.290 E1.2403
G1 X112.079 Y104.568 E0.0156
G1 X112.401 Y104.885 E0.0150
G1 X112.676 Y105.245 E0.0151
G1 X112.896 Y105.639 E0.0150
G1 X113.059 Y106.061 E0.0150
G1 X113.161 Y106.502 E0.0151
G1 X113.200 Y107.000 E0.0166
G1 X113.200 Y113.000 E0.1996
G1 X113.168 Y113.451 E0.0150
G1 X113.073 Y113.893 E0.0150
G1 X112.916 Y114.318 E0.0151
G1 X112.701 Y114.716 E0.0150
G1 X112.432 Y115.079 E0.0150
G1 X112.115 Y115.401 E0.0150
G1 X111.755 Y115.676 E0.0151
G1 X111.361 Y115.896 E0.0150
G1 X110.939 Y116.059 E0.0150
G1 X110.498 Y116.161 E0.0151
G1 X110.000 Y116.200 E0.0166
G1 X70.000 Y116.200 E1.3304
G1 X69.549 Y116.168 E0.0150
G1 X69.107 Y116.073 E0.0150
G1 X68.682 Y115.916 E0.0151
G1 X68.284 Y115.701 E0.0150
G1 X67.921 Y115.432 E0.0150
G1 X67.599 Y115.115 E0.0150
G1 X67.324 Y114.755 E0.0151
G1 X67.104 Y114.361 E0.0150
G1 X66.941 Y113.939 E0.0150
G1 X66.839 Y113.498 E0.0151
G1 X66.800 Y113.000 E0.0166
G1 X66.800 Y67.000 E1.5300
G1 X66.832 Y66.549 E0.0150
G1 X66.927 Y66.107 E0.0150
G1 X67.084 Y65.682 E0.0151
G1 X67.299 Y65.284 E0.0150
G1 X67.568 Y64.921 E0.0150
G1 X67.815 Y64.670 E0.0117
G0 F1500 X67.885 Y64.599
;PRINTING: laserCorner.stl
;PRINTING_ID: 0
G1 F2400 E-0.4000
G1 F900 Z0.400
G0 F9000 X70.533 Y67.526
G0 F9000 X70.600 Y67.600
;TYPE:WALL-INNER
;WIDTH:0.400
G1 F900 Z0.200
G1 F2400 E0.4000
G1 F1500 X107.900 Y67.600 E1.2406
G1 X107.900 Y107.600 E1.3304
G1 X109.400 Y107.600 E0.0499
G1 X109.400 Y112.400 E0.1596
G1 X70.600 Y112.400 E1.2905
G1 X70.600 Y67.700 E1.4867
G0 F1500 X70.600 Y67.600
G0 F9000 X70.270 Y67.270
G0 F9000 X70.200 Y67.200
;TYPE:WALL-OUTER
;WIDTH:0.400
G1 F1500 X108.300 Y67.200 E1.2672
G1 X108.300 Y107.200 E1.3304
G1 X109.800 Y107.200 E0.0499
G1 X109.800 Y112.800 E0.1863
G1 X70.200 Y112.800 E1.3171
G1 X70.200 Y67.300 E1.5133
G0 F1500 X70.200 Y67.200
G0 F1800 X70.300 Y67.200
G0 F1800 X70.400 Y67.200
G1 F2400 E-0.4000
G1 F900 Z0.400
G0 F9000 X70.400 Y67.300
G0 X107.461 Y67.679
G0 F9000 X107.560 Y67.680
;TYPE:SOLID-FILL
;WIDTH:0.400
G1 F900 Z0.200
G1 F2400 E0.4000
G1 F1500 X107.749 Y67.868 E0.0089
G0 F1500 X107.819 Y67.938
G0 F9000 X107.819 Y68.404
G0 F9000 X107.819 Y68.504
G1 F1500 X107.065 Y67.750 E0.0355
G0 F1500 X106.995 Y67.680
G0 F9000 X106.529 Y67.680
G0 F9000 X106.429 Y67.680
G1 F1500 X107.749 Y69.000 E0.0621
G0 F1500 X107.819 Y69.070
G0 F9000 X107.819 Y69.535
G0 F9000 X107.819 Y69.635
G1 F1500 X105.933 Y67.750 E0.0887
G0 F1500 X105.863 Y67.680
G0 F9000 X105.398 Y67.680
G0 F9000 X105.298 Y67.680
G1 F1500 X107.749 Y70.131 E0.1153
G0 F1500 X107.819 Y70.201
G0 F9000 X107.819 Y70.667
G0 F9000 X107.819 Y70.767
G1 F1500 X104.802 Y67.750 E0.1419
G0 F1500 X104.732 Y67.680
G0 F9000 X104.266 Y67.680
G0 F9000 X104.166 Y67.680
G1 F1500 X107.749 Y71.262 E0.1685
G0 F1500 X107.819 Y71.332
G0 F9000 X107.819 Y71.798
G0 F9000 X107.819 Y71.898
G1 F1500 X103.671 Y67.750 E0.1951
G0 F1500 X103.601 Y67.680
G0 F9000 X103.135 Y67.680
G0 F9000 X103.035 Y67.680
G1 F1500 X107.749 Y72.394 E0.2217
G0 F1500 X107.819 Y72.464
G0 F9000 X107.819 Y72.929
G0 F9000 X107.819 Y73.029
G1 F1500 X102.539 Y67.750 E0.2483
G0 F1500 X102.469 Y67.680
G0 F9000 X102.003 Y67.680
G0 F9000 X101.903 Y67.680
G1 F1500 X107.749 Y73.525 E0.2750
G0 F1500 X107.819 Y73.595
G0 F9000 X107.819 Y74.061
G0 F9000 X107.819 Y74.161
G1 F1500 X101.408 Y67.750 E0.3016
G0 F1500 X101.338 Y67.680
G0 F9000 X100.872 Y67.680
G0 F9000 X100.772 Y67.680
G1 F1500 X107.749 Y74.657 E0.3282
G0 F1500 X107.819 Y74.727
G0 F9000 X107.819 Y75.192
G0 F9000 X107.819 Y75.292
G1 F1500 X100.276 Y67.750 E0.3548
G0 F1500 X100.206 Y67.680
G0 F9000 X99.741 Y67.680
G0 F9000 X99.641 Y67.680
G1 F1500 X107.749 Y75.788 E0.3814
G0 F1500 X107.819 Y75.858
G0 F9000 X107.819 Y76.324
G0 F9000 X107.819 Y76.424
G1 F1500 X99.145 Y67.750 E0.4080
G0 F1500 X99.075 Y67.680
G0 F9000 X98.609 Y67.680
G0 F9000 X98.509 Y67.680
G1 F1500 X107.749 Y76.919 E0.4346
G0 F1500 X107.819 Y76.989
G0 F9000 X107.819 Y77.455
G0 F9000 X107.819 Y77.555
G1 F1500 X98.014 Y67.750 E0.4612
G0 F1500 X97.944 Y67.680
G0 F9000 X97.478 Y67.680
G0 F9000 X97.378 Y67.680
G1 F1500 X107.749 Y78.051 E0.4878
G0 F1500 X107.819 Y78.121
G0 F9000 X107.819 Y78.586
G0 F9000 X107.819 Y78.686
G1 F1500 X96.882 Y67.750 E0.5144
G0 F1500 X96.812 Y67.680
G0 F9000 X96.347 Y67.680
G0 F9000 X96.247 Y67.680
G1 F1500 X107.749 Y79.182 E0.5410
G0 F1500 X107.819 Y79.252
G0 F9000 X107.819 Y79.718
G0 F9000 X107.819 Y79.818
G1 F1500 X95.751 Y67.750 E0.5676
G0 F1500 X95.681 Y67.680
G0 F9000 X95.215 Y67.680
G0 F9000 X95.115 Y67.680
G1 F1500 X107.749 Y80.313 E0.5942
G0 F1500 X107.819 Y80.383
G0 F9000 X107.819 Y80.849
G0 F9000 X107.819 Y80.949
G1 F1500 X94.620 Y67.750 E0.6208
G0 F1500 X94.550 Y67.680
G0 F9000 X94.084 Y67.680
G0 F9000 X93.984 Y67.680
G1 F1500 X107.749 Y81.445 E0.6475
G0 F1500 X107.819 Y81.515
G0 F9000 X107.819 Y81.980
G0 F9000 X107.819 Y82.080
G1 F1500 X93.488 Y67.750 E0.6741
G0 F1500 X93.418 Y67.680
G0 F9000 X92.953 Y67.680
G0 F9000 X92.853 Y67.680
G1 F1500 X107.749 Y82.576 E0.7007
G0 F1500 X107.819 Y82.646
G0 F9000 X107.819 Y83.112
G0 F9000 X107.819 Y83.212
G1 F1500 X92.357 Y67.750 E0.7273
G0 F1500 X92.287 Y67.680
G0 F9000 X91.821 Y67.680
G0 F9000 X91.721 Y67.680
G1 F1500 X107.749 Y83.708 E0.7539
G0 F1500 X107.819 Y83.778
G0 F9000 X107.819 Y84.243
G0 F9000 X107.819 Y84.343
G1 F1500 X91.225 Y67.750 E0.7805
G0 F1500 X91.155 Y67.680
G0 F9000 X90.690 Y67.680
G0 F9000 X90.590 Y67.680
G1 F1500 X107.749 Y84.839 E0.8071
G0 F1500 X107.819 Y84.909
G0 F9000 X107.819 Y85.375
G0 F9000 X107.819 Y85.475
G1 F1500 X90.094 Y67.750 E0.8337
G0 F1500 X90.024 Y67.680
G0 F9000 X89.558 Y67.680
G0 F9000 X89.458 Y67.680
G1 F1500 X107.749 Y85.970 E0.8603
G0 F1500 X107.819 Y86.040
G0 F9000 X107.819 Y86.506
G0 F9000 X107.819 Y86.606
G1 F1500 X88.963 Y67.750 E0.8869
G0 F1500 X88.893 Y67.680
G0 F9000 X88.427 Y67.680
G0 F9000 X88.327 Y67.680
G1 F1500 X107.749 Y87.102 E0.9136
G0 F1500 X107.819 Y87.172
G0 F9000 X107.819 Y87.637
G0 F9000 X107.819 Y87.737
G1 F1500 X87.831 Y67.750 E0.9402
G0 F1500 X87.761 Y67.680
G0 F9000 X87.296 Y67.680
G0 F9000 X87.196 Y67.680
G1 F1500 X107.749 Y88.233 E0.9668
G0 F1500 X107.819 Y88.303
G0 F9000 X107.819 Y88.769
G0 F9000 X107.819 Y88.869
G1 F1500 X86.700 Y67.750 E0.9934
G0 F1500 X86.630 Y67.680
G0 F9000 X86.164 Y67.680
G0 F9000 X86.064 Y67.680
G1 F1500 X107.749 Y89.364 E1.0200
G0 F1500 X107.819 Y89.434
G0 F9000 X107.819 Y89.900
G0 F9000 X107.819 Y90.000
G1 F1500 X85.569 Y67.750 E1.0466
G0 F1500 X85.499 Y67.680
G0 F9000 X85.033 Y67.680
G0 F9000 X84.933 Y67.680
G1 F1500 X107.749 Y90.496 E1.0732
G0 F1500 X107.819 Y90.566
G0 F9000 X107.819 Y91.031
G0 F9000 X107.819 Y91.131
G1 F1500 X84.437 Y67.750 E1.0998
G0 F1500 X84.367 Y67.680
G0 F9000 X83.902 Y67.680
G0 F9000 X83.802 Y67.680
G1 F1500 X107.749 Y91.627 E1.1264
G0 F1500 X107.819 Y91.697
G0 F9000 X107.819 Y92.163
G0 F9000 X107.819 Y92.263
G1 F1500 X83.306 Y67.750 E1.1530
G0 F1500 X83.236 Y67.680
G0 F9000 X82.770 Y67.680
G0 F9000 X82.670 Y67.680
G1 F1500 X107.749 Y92.758 E1.1796
G0 F1500 X107.819 Y92.828
G0 F9000 X107.819 Y93.294
G0 F9000 X107.819 Y93.394
G1 F1500 X82.174 Y67.750 E1.2062
G0 F1500 X82.104 Y67.680
G0 F9000 X81.639 Y67.680
G0 F9000 X81.539 Y67.680
G1 F1500 X107.749 Y93.890 E1.2328
G0 F1500 X107.819 Y93.960
G0 F9000 X107.819 Y94.426
G0 F9000 X107.819 Y94.526
G1 F1500 X81.043 Y67.750 E1.2595
G0 F1500 X80.973 Y67.680
G0 F9000 X80.507 Y67.680
G0 F9000 X80.407 Y67.680
G1 F1500 X107.749 Y95.021 E1.2861
G0 F1500 X107.819 Y95.091
G0 F9000 X107.819 Y95.557
G0 F9000 X107.819 Y95.657
G1 F1500 X79.912 Y67.750 E1.3127
G0 F1500 X79.842 Y67.680
G0 F9000 X79.376 Y67.680
G0 F9000 X79.276 Y67.680
G1 F1500 X107.749 Y96.153 E1.3393
G0 F1500 X107.819 Y96.223
G0 F9000 X107.819 Y96.688
G0 F9000 X107.819 Y96.788
G1 F1500 X78.780 Y67.750 E1.3659
G0 F1500 X78.710 Y67.680
G0 F9000 X78.245 Y67.680
G0 F9000 X78.145 Y67.680
G1 F1500 X107.749 Y97.284 E1.3925
G0 F1500 X107.819 Y97.354
G0 F9000 X107.819 Y97.820
G0 F9000 X107.819 Y97.920
G1 F1500 X77.649 Y67.750 E1.4191
G0 F1500 X77.579 Y67.680
G0 F9000 X77.113 Y67.680
G0 F9000 X77.013 Y67.680
G1 F1500 X107.749 Y98.415 E1.4457
G0 F1500 X107.819 Y98.485
G0 F9000 X107.819 Y98.951
G0 F9000 X107.819 Y99.051
G1 F1500 X76.518 Y67.750 E1.4723
G0 F1500 X76.448 Y67.680
G0 F9000 X75.982 Y67.680
G0 F9000 X75.882 Y67.680
G1 F1500 X107.749 Y99.547 E1.4989
G0 F1500 X107.819 Y99.617
G0 F9000 X107.819 Y100.082
G0 F9000 X107.819 Y100.182
G1 F1500 X75.386 Y67.750 E1.5255
G0 F1500 X75.316 Y67.680
G0 F9000 X74.851 Y67.680
G0 F9000 X74.751 Y67.680
G1 F1500 X107.749 Y100.678 E1.5521
G0 F1500 X107.819 Y100.748
G0 F9000 X107.819 Y101.214
G0 F9000 X107.819 Y101.314
G1 F1500 X74.255 Y67.750 E1.5787
G0 F1500 X74.185 Y67.680
G0 F9000 X73.719 Y67.680
G0 F9000 X73.619 Y67.680
G1 F1500 X107.749 Y101.809 E1.6053
G0 F1500 X107.819 Y101.879
G0 F9000 X107.819 Y102.345
G0 F9000 X107.819 Y102.445
G1 F1500 X73.124 Y67.750 E1.6319
G0 F1500 X73.054 Y67.680
G0 F9000 X72.588 Y67.680
G0 F9000 X72.488 Y67.680
G1 F1500 X107.749 Y102.941 E1.6586
G0 F1500 X107.819 Y103.011
G0 F9000 X107.819 Y103.477
G0 F9000 X107.819 Y103.577
G1 F1500 X71.992 Y67.750 E1.6852
G0 F1500 X71.922 Y67.680
G0 F9000 X71.456 Y67.680
G0 F9000 X71.356 Y67.680
G1 F1500 X107.749 Y104.072 E1.7118
G0 F1500 X107.819 Y104.142
G0 F9000 X107.819 Y104.608
G0 F9000 X107.819 Y104.708
G1 F1500 X70.861 Y67.750 E1.7384
G0 F1500 X70.791 Y67.680
G0 F9000 X70.703 Y68.036
G0 F9000 X70.679 Y68.133
G1 F1500 X107.749 Y105.204 E1.7437
G0 F1500 X107.819 Y105.274
G0 F9000 X107.819 Y105.739
G0 F9000 X107.819 Y105.839
G1 F1500 X70.749 Y68.769 E1.7437
G0 F1500 X70.679 Y68.699
G0 F9000 X70.679 Y69.165
G0 F9000 X70.679 Y69.265
G1 F1500 X107.749 Y106.335 E1.7437
G0 F1500 X107.819 Y106.405
G0 F9000 X107.819 Y106.871
G0 F9000 X107.819 Y106.971
G1 F1500 X70.749 Y69.901 E1.7437
