;Sliced by ideaMaker 4.2.1.5321, 2024-02-09 18:46:54 UTC+0000
;Dimension: 180.000 180.000 180.000 0.400
;Plate Shape: 0
;Origin Center: 0
;Extruder Offset #1: 25.000 0.000
;Filament Diameter #1: 1.750
;Filament Diameter #2: 1.750
;Filament Compensation #1: 100.00
;Filament Compensation #2: 90.00
;Filament Density #1: 1240.00
;Filament Density #2: 1240.00
;Bounding Box: 51.750 128.250 68.750 111.250 0.000 46.600
;Model Gap: 0.000
M221  S100.00
M190 S0
M109 S0
START_PRINT EXTRUDER_TEMP=195 BED_TEMP=70 MESH_DO=0
;G28              			; home all axes
;M83            			; set extrusion to relative
;M117 Purge extruder
;G1 Z5 F3000            		; raise Z
;G92 E0 ;Reset Extruder
;G91 ;Relative positioning
;G1 E60 F2400 ;Introduce filament in the nozzle
;G90 ;Absolute positionning
;G92 E0 ;Reset Extruder
;G1 X5 Y5 Z0.2 F3000          	; go intro start pos
;G1 X60 E9 F800        		; thick line
;G1 X90 E5 F1000          		; medium line
;G1 X120 E3.5 F1200        	  	; slim line
;G1 X118 E-0.2 Z0.5 F1500        	; wipe
;G92 E0              		; reset extruder
;TOTAL_NUM: 1
;PRINTING_TIME: 0
;REMAINING_TIME: 8040
M83
;LAYER:0
;Z:0.200
;HEIGHT:0.200
M106 S0
;PRINTING: pokedex_red_top.stl
;PRINTING_ID: 0
G0 F9000 X126.898 Y69.340
G0 F900 Z0.200
G0 F9000 X126.985 Y69.387
;TYPE:WALL-INNER
;WIDTH:0.400
G1 F1800 X127.195 Y69.474 E0.0076
G1 X127.383 Y69.617 E0.0079
G1 X127.526 Y69.805 E0.0079
G1 X127.613 Y70.015 E0.0076
G1 X127.649 Y70.286 E0.0091
G1 X127.650 Y109.708 E1.3112
G1 X127.613 Y109.985 E0.0093
G1 X127.526 Y110.195 E0.0076
G1 X127.383 Y110.383 E0.0079
G1 X127.195 Y110.526 E0.0079
G1 X126.987 Y110.612 E0.0075
G1 X126.654 Y110.650 E0.0111
G1 X53.292 Y110.650 E2.4400
G1 X53.015 Y110.613 E0.0093
G1 X52.805 Y110.526 E0.0076
G1 X52.617 Y110.383 E0.0079
G1 X52.474 Y110.195 E0.0079
G1 X52.387 Y109.985 E0.0076
G1 X52.351 Y109.714 E0.0091
G1 X52.350 Y70.370 E1.3086
G1 X52.389 Y70.009 E0.0121
G1 X52.474 Y69.805 E0.0074
G1 X52.617 Y69.617 E0.0079
G1 X52.805 Y69.474 E0.0079
G1 X53.015 Y69.387 E0.0076
G1 X53.286 Y69.351 E0.0091
G1 X126.708 Y69.350 E2.4420
G1 X126.886 Y69.374 E0.0060
G0 F1800 X126.985 Y69.387
G0 F9000 X127.061 Y69.093
G0 F9000 X127.086 Y68.996
;TYPE:WALL-OUTER
;WIDTH:0.400
G1 F1800 X127.399 Y69.126 E0.0113
G1 X127.668 Y69.332 E0.0113
G1 X127.874 Y69.601 E0.0113
G1 X128.004 Y69.914 E0.0113
G1 X128.049 Y70.257 E0.0115
G1 X128.050 Y109.737 E1.3131
G1 X128.004 Y110.086 E0.0117
G1 X127.874 Y110.399 E0.0113
G1 X127.668 Y110.668 E0.0113
G1 X127.399 Y110.874 E0.0113
G1 X127.088 Y111.003 E0.0112
G1 X126.673 Y111.050 E0.0139
G1 X53.263 Y111.050 E2.4416
G1 X52.914 Y111.004 E0.0117
G1 X52.601 Y110.874 E0.0113
G1 X52.332 Y110.668 E0.0113
G1 X52.126 Y110.399 E0.0113
G1 X51.996 Y110.086 E0.0113
G1 X51.951 Y109.743 E0.0115
G1 X51.950 Y70.345 E1.3104
G1 X51.997 Y69.912 E0.0145
G1 X52.126 Y69.601 E0.0112
G1 X52.332 Y69.332 E0.0113
G1 X52.601 Y69.126 E0.0113
G1 X52.914 Y68.996 E0.0113
G1 X53.257 Y68.951 E0.0115
G1 X126.737 Y68.950 E2.4440
G1 X126.987 Y68.983 E0.0084
G0 F1800 X127.086 Y68.996
G0 X127.179 Y69.034
G0 F1800 X127.271 Y69.072
G0 F9000 X126.941 Y69.384
G0 F9000 X126.869 Y69.452
;TYPE:SOLID-FILL
;WIDTH:0.400
G1 F1800 X127.476 Y70.059 E0.0286
G0 F1800 X127.546 Y70.129
G0 F9000 X127.566 Y70.617
G0 F9000 X127.569 Y70.717
G1 F1800 X126.351 Y69.500 E0.0573
G0 F1800 X126.281 Y69.430
G0 F9000 X125.815 Y69.430
G0 F9000 X125.715 Y69.430
G1 F1800 X127.499 Y71.213 E0.0839
G0 F1800 X127.569 Y71.283
G0 F9000 X127.569 Y71.749
G0 F9000 X127.569 Y71.849
G1 F1800 X125.220 Y69.500 E0.1105
G0 F1800 X125.150 Y69.430
G0 F9000 X124.684 Y69.430
G0 F9000 X124.584 Y69.430
G1 F1800 X127.499 Y72.344 E0.1371
G0 F1800 X127.569 Y72.414
G0 F9000 X127.569 Y72.880
G0 F9000 X127.569 Y72.980
G1 F1800 X124.088 Y69.500 E0.1637
G0 F1800 X124.018 Y69.430
G0 F9000 X123.553 Y69.430
G0 F9000 X123.453 Y69.430
G1 F1800 X127.499 Y73.476 E0.1903
G0 F1800 X127.569 Y73.546
G0 F9000 X127.569 Y74.011
G0 F9000 X127.569 Y74.111
G1 F1800 X122.957 Y69.500 E0.2169
G0 F1800 X122.887 Y69.430
G0 F9000 X122.421 Y69.430
G0 F9000 X122.321 Y69.430
G1 F1800 X127.499 Y74.607 E0.2435
G0 F1800 X127.569 Y74.677
G0 F9000 X127.569 Y75.143
G0 F9000 X127.569 Y75.243
G1 F1800 X121.826 Y69.500 E0.2701
G0 F1800 X121.756 Y69.430
G0 F9000 X121.290 Y69.430
G0 F9000 X121.190 Y69.430
G1 F1800 X127.499 Y75.738 E0.2967
G0 F1800 X127.569 Y75.808
G0 F9000 X127.569 Y76.274
G0 F9000 X127.569 Y76.374
G1 F1800 X120.694 Y69.500 E0.3234
G0 F1800 X120.624 Y69.430
G0 F9000 X120.158 Y69.430
G0 F9000 X120.058 Y69.430
G1 F1800 X127.499 Y76.870 E0.3500
G0 F1800 X127.569 Y76.940
G0 F9000 X127.569 Y77.405
G0 F9000 X127.569 Y77.505
G1 F1800 X119.563 Y69.500 E0.3766
G0 F1800 X119.493 Y69.430
G0 F9000 X119.027 Y69.430
G0 F9000 X118.927 Y69.430
G1 F1800 X127.499 Y78.001 E0.4032
G0 F1800 X127.569 Y78.071
G0 F9000 X127.569 Y78.537
G0 F9000 X127.569 Y78.637
G1 F1800 X118.431 Y69.500 E0.4298
G0 F1800 X118.361 Y69.430
G0 F9000 X117.896 Y69.430
G0 F9000 X117.796 Y69.430
G1 F1800 X127.499 Y79.133 E0.4564
G0 F1800 X127.569 Y79.203
G0 F9000 X127.569 Y79.668
G0 F9000 X127.569 Y79.768
G1 F1800 X117.300 Y69.500 E0.4830
G0 F1800 X117.230 Y69.430
G0 F9000 X116.764 Y69.430
G0 F9000 X116.664 Y69.430
G1 F1800 X127.499 Y80.264 E0.5096
G0 F1800 X127.569 Y80.334
G0 F9000 X127.569 Y80.800
G0 F9000 X127.569 Y80.900
G1 F1800 X116.169 Y69.500 E0.5362
G0 F1800 X116.099 Y69.430
G0 F9000 X115.633 Y69.430
G0 F9000 X115.533 Y69.430
G1 F1800 X127.499 Y81.395 E0.5628
G0 F1800 X127.569 Y81.465
G0 F9000 X127.569 Y81.931
G0 F9000 X127.569 Y82.031
G1 F1800 X115.037 Y69.500 E0.5894
G0 F1800 X114.967 Y69.430
G0 F9000 X114.502 Y69.430
G0 F9000 X114.402 Y69.430
G1 F1800 X127.499 Y82.527 E0.6160
G0 F1800 X127.569 Y82.597
G0 F9000 X127.569 Y83.062
G0 F9000 X127.569 Y83.162
G1 F1800 X113.906 Y69.500 E0.6426
G0 F1800 X113.836 Y69.430
G0 F9000 X113.370 Y69.430
G0 F9000 X113.270 Y69.430
G1 F1800 X127.499 Y83.658 E0.6693
G0 F1800 X127.569 Y83.728
G0 F9000 X127.569 Y84.194
G0 F9000 X127.569 Y84.294
G1 F1800 X112.775 Y69.500 E0.6959
G0 F1800 X112.705 Y69.430
G0 F9000 X112.239 Y69.430
G0 F9000 X112.139 Y69.430
G1 F1800 X127.499 Y84.789 E0.7225
G0 F1800 X127.569 Y84.859
G0 F9000 X127.569 Y85.325
G0 F9000 X127.569 Y85.425
G1 F1800 X111.643 Y69.500 E0.7491
G0 F1800 X111.573 Y69.430
G0 F9000 X111.107 Y69.430
G0 F9000 X111.007 Y69.430
G1 F1800 X127.499 Y85.921 E0.7757
G0 F1800 X127.569 Y85.991
G0 F9000 X127.569 Y86.456
G0 F9000 X127.569 Y86.556
G1 F1800 X110.512 Y69.500 E0.8023
G0 F1800 X110.442 Y69.430
G0 F9000 X109.976 Y69.430
G0 F9000 X109.876 Y69.430
G1 F1800 X127.499 Y87.052 E0.8289
G0 F1800 X127.569 Y87.122
G0 F9000 X127.569 Y87.588
G0 F9000 X127.569 Y87.688
G1 F1800 X109.380 Y69.500 E0.8555
G0 F1800 X109.310 Y69.430
G0 F9000 X108.845 Y69.430
G0 F9000 X108.745 Y69.430
G1 F1800 X127.499 Y88.183 E0.8821
G0 F1800 X127.569 Y88.253
G0 F9000 X127.569 Y88.719
G0 F9000 X127.569 Y88.819
G1 F1800 X108.249 Y69.500 E0.9087
G0 F1800 X108.179 Y69.430
G0 F9000 X107.713 Y69.430
G0 F9000 X107.613 Y69.430
G1 F1800 X127.499 Y89.315 E0.9354
G0 F1800 X127.569 Y89.385
G0 F9000 X127.569 Y89.851
G0 F9000 X127.569 Y89.951
G1 F1800 X107.118 Y69.500 E0.9620
G0 F1800 X107.048 Y69.430
G0 F9000 X106.582 Y69.430
G0 F9000 X106.482 Y69.430
G1 F1800 X127.499 Y90.446 E0.9886
G0 F1800 X127.569 Y90.516
G0 F9000 X127.569 Y90.982
G0 F9000 X127.569 Y91.082
G1 F1800 X105.986 Y69.500 E1.0152
G0 F1800 X105.916 Y69.430
G0 F9000 X105.451 Y69.430
G0 F9000 X105.351 Y69.430
G1 F1800 X127.499 Y91.578 E1.0418
G0 F1800 X127.569 Y91.648
G0 F9000 X127.569 Y92.113
G0 F9000 X127.569 Y92.213
G1 F1800 X104.855 Y69.500 E1.0684
G0 F1800 X104.785 Y69.430
G0 F9000 X104.319 Y69.430
G0 F9000 X104.219 Y69.430
G1 F1800 X127.499 Y92.709 E1.0950
G0 F1800 X127.569 Y92.779
G0 F9000 X127.569 Y93.245
G0 F9000 X127.569 Y93.345
G1 F1800 X103.724 Y69.500 E1.1216
G0 F1800 X103.654 Y69.430
G0 F9000 X103.188 Y69.430
G0 F9000 X103.088 Y69.430
G1 F1800 X127.499 Y93.840 E1.1482
G0 F1800 X127.569 Y93.910
G0 F9000 X127.569 Y94.376
G0 F9000 X127.569 Y94.476
G1 F1800 X102.592 Y69.500 E1.1748
G0 F1800 X102.522 Y69.430
G0 F9000 X102.057 Y69.430
G0 F9000 X101.957 Y69.430
G1 F1800 X127.499 Y94.972 E1.2014
G0 F1800 X127.569 Y95.042
G0 F9000 X127.569 Y95.507
G0 F9000 X127.569 Y95.607
G1 F1800 X101.461 Y69.500 E1.2280
G0 F1800 X101.391 Y69.430
G0 F9000 X100.925 Y69.430
G0 F9000 X100.825 Y69.430
G1 F1800 X127.499 Y96.103 E1.2546
G0 F1800 X127.569 Y96.173
G0 F9000 X127.569 Y96.639
G0 F9000 X127.569 Y96.739
G1 F1800 X100.329 Y69.500 E1.2813
G0 F1800 X100.259 Y69.430
G0 F9000 X99.794 Y69.430
G0 F9000 X99.694 Y69.430
G1 F1800 X127.499 Y97.234 E1.3078
G0 F1800 X127.569 Y97.304
G0 F9000 X127.569 Y97.770
G0 F9000 X127.569 Y97.870
G1 F1800 X99.198 Y69.500 E1.3345
G0 F1800 X99.128 Y69.430
G0 F9000 X98.662 Y69.430
G0 F9000 X98.562 Y69.430
G1 F1800 X127.499 Y98.366 E1.3611
G0 F1800 X127.569 Y98.436
G0 F9000 X127.569 Y98.902
G0 F9000 X127.569 Y99.002
G1 F1800 X98.067 Y69.500 E1.3877
G0 F1800 X97.997 Y69.430
G0 F9000 X97.531 Y69.430
G0 F9000 X97.431 Y69.430
G1 F1800 X127.499 Y99.497 E1.4143
G0 F1800 X127.569 Y99.567
G0 F9000 X127.569 Y100.033
G0 F9000 X127.569 Y100.133
G1 F1800 X96.935 Y69.500 E1.4409
G0 F1800 X96.865 Y69.430
G0 F9000 X96.400 Y69.430
G0 F9000 X96.300 Y69.430
G1 F1800 X127.499 Y100.629 E1.4675
G0 F1800 X127.569 Y100.699
G0 F9000 X127.569 Y101.164
G0 F9000 X127.569 Y101.264
G1 F1800 X95.804 Y69.500 E1.4941
G0 F1800 X95.734 Y69.430
G0 F9000 X95.268 Y69.430
G0 F9000 X95.168 Y69.430
G1 F1800 X127.499 Y101.760 E1.5207
G0 F1800 X127.569 Y101.830
G0 F9000 X127.569 Y102.296
G0 F9000 X127.569 Y102.396
G1 F1800 X94.673 Y69.500 E1.5473
G0 F1800 X94.603 Y69.430
G0 F9000 X94.137 Y69.430
G0 F9000 X94.037 Y69.430
G1 F1800 X127.499 Y102.891 E1.5739
G0 F1800 X127.569 Y102.961
G0 F9000 X127.569 Y103.427
G0 F9000 X127.569 Y103.527
G1 F1800 X93.541 Y69.500 E1.6005
G0 F1800 X93.471 Y69.430
G0 F9000 X93.006 Y69.430
G0 F9000 X92.906 Y69.430
G1 F1800 X127.499 Y104.023 E1.6271
G0 F1800 X127.569 Y104.093
G0 F9000 X127.569 Y104.558
G0 F9000 X127.569 Y104.658
G1 F1800 X92.410 Y69.500 E1.6537
G0 F1800 X92.340 Y69.430
G0 F9000 X91.874 Y69.430
G0 F9000 X91.774 Y69.430
G1 F1800 X127.499 Y105.154 E1.6804
G0 F1800 X127.569 Y105.224
G0 F9000 X127.569 Y105.690
G0 F9000 X127.569 Y105.790
G1 F1800 X91.278 Y69.500 E1.7070
G0 F1800 X91.208 Y69.430
G0 F9000 X90.743 Y69.430
G0 F9000 X90.643 Y69.430
G1 F1800 X127.499 Y106.285 E1.7336
G0 F1800 X127.569 Y106.355
G0 F9000 X127.569 Y106.821
G0 F9000 X127.569 Y106.921
G1 F1800 X90.147 Y69.500 E1.7602
G0 F1800 X90.077 Y69.430
G0 F9000 X89.611 Y69.430
G0 F9000 X89.511 Y69.430
G1 F1800 X127.499 Y107.417 E1.7868
G0 F1800 X127.569 Y107.487
G0 F9000 X127.569 Y107.952
G0 F9000 X127.569 Y108.052
G1 F1800 X89.016 Y69.500 E1.8134
G0 F1800 X88.946 Y69.430
G0 F9000 X88.480 Y69.430
G0 F9000 X88.380 Y69.430
G1 F1800 X127.499 Y108.548 E1.8400
G0 F1800 X127.569 Y108.618
G0 F9000 X127.569 Y109.084
G0 F9000 X127.569 Y109.184
G1 F1800 X87.884 Y69.500 E1.8666
G0 F1800 X87.814 Y69.430
G0 F9000 X87.349 Y69.430
G0 F9000 X87.249 Y69.430
G1 F1800 X127.494 Y109.675 E1.8930
G0 F1800 X127.564 Y109.745
G0 F9000 X127.463 Y110.086
G0 F9000 X127.435 Y110.182
G1 F1800 X86.753 Y69.500 E1.9136
G0 F1800 X86.683 Y69.430
G0 F9000 X86.217 Y69.430
G0 F9000 X86.117 Y69.430
G1 F1800 X127.076 Y110.389 E1.9266
G0 F1800 X127.146 Y110.459
G0 F9000 X126.783 Y110.542
G0 F9000 X126.686 Y110.564
G1 F1800 X85.622 Y69.500 E1.9315
G0 F1800 X85.552 Y69.430
G0 F9000 X85.086 Y69.430
G0 F9000 X84.986 Y69.430
G1 F1800 X126.055 Y110.499 E1.9318
G0 F1800 X126.125 Y110.569
G0 F9000 X125.660 Y110.569
G0 F9000 X125.560 Y110.569
G1 F1800 X84.490 Y69.500 E1.9318
G0 F1800 X84.420 Y69.430
G0 F9000 X83.955 Y69.430
G0 F9000 X83.855 Y69.430
G1 F1800 X124.924 Y110.499 E1.9318
G0 F1800 X124.994 Y110.569
G0 F9000 X124.528 Y110.569
G0 F9000 X124.428 Y110.569
G1 F1800 X83.359 Y69.500 E1.9318
G0 F1800 X83.289 Y69.430
G0 F9000 X82.823 Y69.430
G0 F9000 X82.723 Y69.430
G1 F1800 X123.793 Y110.499 E1.9318
G0 F1800 X123.863 Y110.569
G0 F9000 X123.397 Y110.569
G0 F9000 X123.297 Y110.569
G1 F1800 X82.228 Y69.500 E1.9318
G0 F1800 X82.158 Y69.430
G0 F9000 X81.692 Y69.430
G0 F9000 X81.592 Y69.430
G1 F1800 X122.661 Y110.499 E1.9318
G0 F1800 X122.731 Y110.569
G0 F9000 X122.266 Y110.569
G0 F9000 X122.166 Y110.569
G1 F1800 X81.096 Y69.500 E1.9318
G0 F1800 X81.026 Y69.430
G0 F9000 X80.560 Y69.430
G0 F9000 X80.460 Y69.430
G1 F1800 X121.530 Y110.499 E1.9318
G0 F1800 X121.600 Y110.569
G0 F9000 X121.134 Y110.569
G0 F9000 X121.034 Y110.569
G1 F1800 X79.965 Y69.500 E1.9318
G0 F1800 X79.895 Y69.430
G0 F9000 X79.429 Y69.430
G0 F9000 X79.329 Y69.430
G1 F1800 X120.399 Y110.499 E1.9318
G0 F1800 X120.469 Y110.569
G0 F9000 X120.003 Y110.569
G0 F9000 X119.903 Y110.569
G1 F1800 X78.833 Y69.500 E1.9318
G0 F1800 X78.763 Y69.430
G0 F9000 X78.298 Y69.430
G0 F9000 X78.198 Y69.430
G1 F1800 X119.267 Y110.499 E1.9318
G0 F1800 X119.337 Y110.569
G0 F9000 X118.872 Y110.569
G0 F9000 X118.772 Y110.569
G1 F1800 X77.702 Y69.500 E1.9318
G0 F1800 X77.632 Y69.430
G0 F9000 X77.166 Y69.430
G0 F9000 X77.066 Y69.430
G1 F1800 X118.136 Y110.499 E1.9318
G0 F1800 X118.206 Y110.569
G0 F9000 X117.740 Y110.569
G0 F9000 X117.640 Y110.569
G1 F1800 X76.571 Y69.500 E1.9318
G0 F1800 X76.501 Y69.430
G0 F9000 X76.035 Y69.430
G0 F9000 X75.935 Y69.430
G1 F1800 X117.004 Y110.499 E1.9318
G0 F1800 X117.074 Y110.569
G0 F9000 X116.609 Y110.569
G0 F9000 X116.509 Y110.569
G1 F1800 X75.439 Y69.500 E1.9318
G0 F1800 X75.369 Y69.430
G0 F9000 X74.904 Y69.430
G0 F9000 X74.804 Y69.430
G1 F1800 X115.873 Y110.499 E1.9318
G0 F1800 X115.943 Y110.569
G0 F9000 X115.477 Y110.569
G0 F9000 X115.377 Y110.569
G1 F1800 X74.308 Y69.500 E1.9318
G0 F1800 X74.238 Y69.430
G0 F9000 X73.772 Y69.430
G0 F9000 X73.672 Y69.430
G1 F1800 X114.742 Y110.499 E1.9318
G0 F1800 X114.812 Y110.569
G0 F9000 X114.346 Y110.569
G0 F9000 X114.246 Y110.569
G1 F1800 X73.177 Y69.500 E1.9318
G0 F1800 X73.107 Y69.430
G0 F9000 X72.641 Y69.430
G0 F9000 X72.541 Y69.430
G1 F1800 X113.610 Y110.499 E1.9318
G0 F1800 X113.680 Y110.569
G0 F9000 X113.215 Y110.569
G0 F9000 X113.115 Y110.569
G1 F1800 X72.045 Y69.500 E1.9318
G0 F1800 X71.975 Y69.430
G0 F9000 X71.510 Y69.430
G0 F9000 X71.410 Y69.430
G1 F1800 X112.479 Y110.499 E1.9318
G0 F1800 X112.549 Y110.569
G0 F9000 X112.083 Y110.569
G0 F9000 X111.983 Y110.569
G1 F1800 X70.914 Y69.500 E1.9318
G0 F1800 X70.844 Y69.430
G0 F9000 X70.378 Y69.430
G0 F9000 X70.278 Y69.430
G1 F1800 X111.348 Y110.499 E1.9318
G0 F1800 X111.418 Y110.569
G0 F9000 X110.952 Y110.569
G0 F9000 X110.852 Y110.569
G1 F1800 X69.782 Y69.500 E1.9318
G0 F1800 X69.712 Y69.430
G0 F9000 X69.247 Y69.430
G0 F9000 X69.147 Y69.430
G1 F1800 X110.216 Y110.499 E1.9318
G0 F1800 X110.286 Y110.569
G0 F9000 X109.821 Y110.569
G0 F9000 X109.721 Y110.569
G1 F1800 X68.651 Y69.500 E1.9318
G0 F1800 X68.581 Y69.430
G0 F9000 X68.115 Y69.430
G0 F9000 X68.015 Y69.430
G1 F1800 X109.085 Y110.499 E1.9318
G0 F1800 X109.155 Y110.569
G0 F9000 X108.689 Y110.569
G0 F9000 X108.589 Y110.569
G1 F1800 X67.520 Y69.500 E1.9318
G0 F1800 X67.450 Y69.430
G0 F9000 X66.984 Y69.430
G0 F9000 X66.884 Y69.430
G1 F1800 X107.953 Y110.499 E1.9318
G0 F1800 X108.023 Y110.569
G0 F9000 X107.558 Y110.569
G0 F9000 X107.458 Y110.569
G1 F1800 X66.388 Y69.500 E1.9318
G0 F1800 X66.318 Y69.430
G0 F9000 X65.853 Y69.430
G0 F9000 X65.753 Y69.430
G1 F1800 X106.822 Y110.499 E1.9318
G0 F1800 X106.892 Y110.569
G0 F9000 X106.426 Y110.569
G0 F9000 X106.326 Y110.569
G1 F1800 X65.257 Y69.500 E1.9318
G0 F1800 X65.187 Y69.430
G0 F9000 X64.721 Y69.430
G0 F9000 X64.621 Y69.430
G1 F1800 X105.691 Y110.499 E1.9318
G0 F1800 X105.761 Y110.569
G0 F9000 X105.295 Y110.569
G0 F9000 X105.195 Y110.569
G1 F1800 X64.126 Y69.500 E1.9318
G0 F1800 X64.056 Y69.430
G0 F9000 X63.590 Y69.430
G0 F9000 X63.490 Y69.430
G1 F1800 X104.559 Y110.499 E1.9318
G0 F1800 X104.629 Y110.569
G0 F9000 X104.164 Y110.569
G0 F9000 X104.064 Y110.569
G1 F1800 X62.994 Y69.500 E1.9318
G0 F1800 X62.924 Y69.430
G0 F9000 X62.459 Y69.430
G0 F9000 X62.359 Y69.430
G1 F1800 X103.428 Y110.499 E1.9318
G0 F1800 X103.498 Y110.569
G0 F9000 X103.032 Y110.569
