;Sliced by ideaMaker 4.2.1.5321, 2024-02-09 16:41:56 UTC+0000
;Dimension: 180.000 180.000 180.000 0.400
;Plate Shape: 0
;Origin Center: 0
;Extruder Offset #1: 25.000 0.000
;Filament Diameter #1: 1.750
;Filament Diameter #2: 1.750
;Filament Compensation #1: 100.00
;Filament Compensation #2: 90.00
;Filament Density #1: 1240.00
;Filament Density #2: 1240.00
;Bounding Box: 50.249 129.753 67.255 112.764 0.000 67.000
;Model Gap: 0.000
M221 T0 S100.00
M140 S70.00
M104 T0 S215.00
M109 T0 S215.00
T0
M190 S70.00
M190 S0
M109 S0
START_PRINT EXTRUDER_TEMP=215 BED_TEMP=70 MESH_DO=0
;------------------------------------------------------------------------------------
; - KINGROON START CODE
;G21 ; Set to metric values
;G90 ; Absolute positioning
;M82 ; Set extruder to absolute mode
;M107 ; Start with the fan off
;
;G28 X0 Y0 Z0 ; Home all axes to min endstops
;; G29 ; if using BLTOUCH leveling
;G0 Z2.0 ; Move Z Axis up little to prevent scratching the heatbed
;G0 X5.0 Y8.0 ; Move XY to start position as fast as possible
;G0 Z0.3 ; Move Z axis to start position as fast as possible
;G92 E0 ; Reset Extruder
;G1 X85.0 E20 F1000.0 ; Draw the purge line
;G1 Z3.0 F1000.0 ; Move Z Axis up
;G1 X90 F4000 ; Quickly wipe away from the filament line
;G92 E0 ; Reset Extruder
;M300 S300 P1000 ; Play a 300Hz beep sound for 1000 milliseconds
;M117 Printing... ; Display "Printing..."
;G5 ; Start printing
;G28              			; home all axes
;M83            			; set extrusion to relative
;M117 Purge extruder
;G1 Z5 F3000            		; raise Z
;G92 E0 ;Reset Extruder
;G91 ;Relative positioning
;G1 E30 F2400 ;Introduce filament in the nozzle
;G90 ;Absolute positionning
;G92 E0 ;Reset Extruder
;G1 X5 Y5 Z0.2 F3000          	; go intro start pos
;G1 X5 Y5 Z0.2 F800.0
;G1 X60 Z0.2 F1500.0 E15
;G1 X10.1 Y120.0 Z0.2 F5000.0
;G1 X10.1 Y5 Z0.28 F1500.0 E30
;G1 X60 E9 F800        		; thick line
;G1 X90 E5 F1000          		; medium line
;G1 X120 E3.5 F1200        	  	; slim line
;G1 X118 E-0.2 Z0.5 F1500        	; wipe
;G1 X120 Z0.2 E9 F800        		; thick line
;G1 X5 Z0.2 E9 F800          		; medium line
;G1 X120 Z0.2 E3.5 F1200        	  	; slim line
;G1 X118 E-0.2 Z0.5 F1500        	; wipe
;G92 E0              		; reset extruder
;TOTAL_NUM: 1
;PRINTING_TIME: 0
;REMAINING_TIME: 7160
M83
;LAYER:0
;Z:0.200
;HEIGHT:0.200
M106 S0
;PRINTING: NON-OBJECT
;PRINTING_ID: -1
G1 F2400 E-0.4000
G0 F9000 X52.098 Y68.582
G0 F900 Z0.200
G0 F9000 X52.158 Y68.661
;TYPE:SKIRT
;WIDTH:0.400
G1 F2400 E0.4000
G1 F1500 X52.694 Y68.320 E0.0211
G1 X53.994 Y67.661 E0.0485
G1 X54.411 Y67.486 E0.0150
G1 X55.086 Y67.314 E0.0232
G1 X55.754 Y67.255 E0.0223
G1 X124.283 Y67.256 E2.2793
G1 X124.871 Y67.305 E0.0196
G1 X125.747 Y67.492 E0.0298
G1 X126.287 Y67.661 E0.0188
G1 X126.798 Y67.905 E0.0188
G1 X127.228 Y68.186 E0.0171
G1 X127.908 Y68.707 E0.0285
G1 X128.247 Y69.006 E0.0150
G1 X128.618 Y69.431 E0.0188
G1 X128.926 Y69.902 E0.0187
G1 X129.194 Y70.487 E0.0214
G1 X129.541 Y71.469 E0.0346
G1 X129.661 Y71.905 E0.0150
G1 X129.750 Y72.706 E0.0268
G1 X129.753 Y107.273 E1.1497
G1 X129.719 Y107.779 E0.0169
G1 X129.531 Y108.714 E0.0317
G1 X129.375 Y109.234 E0.0181
G1 X129.139 Y109.748 E0.0188
G1 X128.868 Y110.177 E0.0169
G1 X128.460 Y110.658 E0.0210
G1 X127.616 Y111.501 E0.0397
G1 X127.231 Y111.831 E0.0169
G1 X126.805 Y112.110 E0.0169
G1 X126.185 Y112.396 E0.0227
G1 X125.695 Y112.540 E0.0170
G1 X125.038 Y112.682 E0.0224
G1 X124.247 Y112.764 E0.0264
G1 X55.718 Y112.763 E2.2793
G1 X55.104 Y112.708 E0.0205
G1 X54.412 Y112.535 E0.0237
G1 X53.483 Y112.206 E0.0328
G1 X52.939 Y111.961 E0.0198
G1 X52.462 Y111.656 E0.0188
G1 X52.028 Y111.281 E0.0191
G1 X51.570 Y110.748 E0.0234
G1 X51.222 Y110.204 E0.0215
G1 X50.687 Y109.151 E0.0393
G1 X50.463 Y108.595 E0.0199
G1 X50.323 Y108.021 E0.0197
G1 X50.249 Y107.274 E0.0250
G1 X50.249 Y72.719 E1.1493
G1 X50.302 Y72.109 E0.0204
G1 X50.464 Y71.458 E0.0223
G1 X50.814 Y70.466 E0.0350
G1 X51.047 Y69.950 E0.0188
G1 X51.351 Y69.473 E0.0188
G1 X51.719 Y69.044 E0.0188
G1 X52.083 Y68.726 E0.0161
G0 F1500 X52.158 Y68.661
G0 F9000 X52.320 Y68.914
G0 F9000 X52.373 Y68.998
G1 F1500 X52.909 Y68.657 E0.0211
G1 X54.149 Y68.030 E0.0462
G1 X54.566 Y67.855 E0.0150
G1 X55.122 Y67.712 E0.0191
G1 X55.754 Y67.655 E0.0211
G1 X124.283 Y67.656 E2.2793
G1 X124.788 Y67.696 E0.0168
G1 X125.630 Y67.874 E0.0286
G1 X126.117 Y68.023 E0.0169
G1 X126.579 Y68.240 E0.0170
G1 X127.009 Y68.521 E0.0171
G1 X127.643 Y69.007 E0.0266
G1 X127.982 Y69.306 E0.0150
G1 X128.315 Y69.692 E0.0170
G1 X128.590 Y70.119 E0.0169
G1 X128.817 Y70.620 E0.0183
G1 X129.155 Y71.575 E0.0337
G1 X129.275 Y72.011 E0.0150
G1 X129.352 Y72.748 E0.0246
G1 X129.353 Y107.273 E1.1483
G1 X129.320 Y107.752 E0.0160
G1 X129.147 Y108.602 E0.0289
G1 X129.011 Y109.067 E0.0161
G1 X128.775 Y109.581 E0.0188
G1 X128.531 Y109.961 E0.0150
G1 X128.177 Y110.375 E0.0181
G1 X127.353 Y111.199 E0.0388
G1 X127.012 Y111.496 E0.0150
G1 X126.586 Y111.775 E0.0169
G1 X126.072 Y112.012 E0.0188
G1 X125.609 Y112.149 E0.0161
G1 X124.996 Y112.284 E0.0209
G1 X124.247 Y112.364 E0.0251
G1 X55.718 Y112.363 E2.2793
G1 X55.200 Y112.320 E0.0173
G1 X54.546 Y112.158 E0.0224
G1 X53.617 Y111.829 E0.0328
G1 X53.152 Y111.622 E0.0169
G1 X52.721 Y111.351 E0.0169
G1 X52.330 Y111.019 E0.0171
G1 X51.907 Y110.532 E0.0215
G1 X51.559 Y109.988 E0.0215
G1 X51.044 Y108.970 E0.0379
G1 X50.851 Y108.498 E0.0170
G1 X50.721 Y107.980 E0.0178
G1 X50.649 Y107.274 E0.0236
G1 X50.648 Y72.750 E1.1483
G1 X50.691 Y72.204 E0.0182
G1 X50.841 Y71.591 E0.0210
G1 X51.180 Y70.628 E0.0340
G1 X51.386 Y70.162 E0.0169
G1 X51.656 Y69.731 E0.0169
G1 X51.984 Y69.343 E0.0169
G1 X52.299 Y69.064 E0.0140
G0 F1500 X52.373 Y68.998
G0 F9000 X52.535 Y69.251
G0 F9000 X52.588 Y69.335
G1 F1500 X53.124 Y68.994 E0.0211
G1 X54.304 Y68.399 E0.0440
G1 X54.721 Y68.224 E0.0150
G1 X55.159 Y68.110 E0.0151
G1 X55.754 Y68.055 E0.0199
G1 X124.255 Y68.055 E2.2784
G1 X124.706 Y68.087 E0.0150
G1 X125.516 Y68.257 E0.0275
G1 X125.950 Y68.386 E0.0151
G1 X126.361 Y68.575 E0.0150
G1 X126.766 Y68.839 E0.0161
G1 X127.378 Y69.307 E0.0256
G1 X127.717 Y69.606 E0.0150
G1 X128.010 Y69.951 E0.0151
G1 X128.252 Y70.333 E0.0150
G1 X128.451 Y70.782 E0.0163
G1 X128.769 Y71.681 E0.0317
G1 X128.889 Y72.117 E0.0150
G1 X128.952 Y72.748 E0.0211
G1 X128.953 Y107.273 E1.1483
G1 X128.921 Y107.724 E0.0150
G1 X128.755 Y108.520 E0.0270
G1 X128.627 Y108.954 E0.0150
G1 X128.438 Y109.365 E0.0150
G1 X128.194 Y109.745 E0.0150
G1 X127.894 Y110.092 E0.0153
G1 X127.090 Y110.897 E0.0378
G1 X126.749 Y111.194 E0.0150
G1 X126.369 Y111.439 E0.0150
G1 X125.958 Y111.629 E0.0151
G1 X125.522 Y111.759 E0.0151
G1 X124.952 Y111.886 E0.0194
G1 X124.247 Y111.964 E0.0236
G1 X55.746 Y111.964 E2.2784
G1 X55.295 Y111.932 E0.0150
G1 X54.679 Y111.781 E0.0211
G1 X53.777 Y111.462 E0.0318
G1 X53.362 Y111.281 E0.0151
G1 X52.977 Y111.044 E0.0150
G1 X52.630 Y110.755 E0.0150
G1 X52.244 Y110.316 E0.0194
G1 X51.896 Y109.772 E0.0215
G1 X51.413 Y108.815 E0.0357
G1 X51.238 Y108.398 E0.0150
G1 X51.119 Y107.938 E0.0158
G1 X51.049 Y107.274 E0.0222
G1 X51.048 Y72.750 E1.1483
G1 X51.080 Y72.299 E0.0150
G1 X51.230 Y71.686 E0.0210
G1 X51.547 Y70.787 E0.0317
G1 X51.727 Y70.372 E0.0150
G1 X51.964 Y69.987 E0.0150
G1 X52.253 Y69.639 E0.0150
G1 X52.514 Y69.402 E0.0117
G0 F1500 X52.588 Y69.335
;PRINTING: pokedex_black_bottom_v2.stl
;PRINTING_ID: 0
G1 F2400 E-0.4000
G1 F900 Z0.400
G0 F9000 X55.234 Y72.342
G0 F9000 X55.300 Y72.417
;TYPE:WALL-INNER
;WIDTH:0.400
G1 F900 Z0.200
G1 F2400 E0.4000
G1 F1500 X55.300 Y107.505 E1.1670
G1 X55.040 Y107.567 E0.0089
G1 X54.849 Y107.187 E0.0141
G1 X54.848 Y72.854 E1.1419
G1 X55.019 Y72.369 E0.0171
G1 X55.202 Y72.401 E0.0062
G0 F1500 X55.300 Y72.417
G0 F9000 X54.807 Y72.053
G0 F9000 X54.727 Y71.994
;TYPE:WALL-OUTER
;WIDTH:0.400
G1 F1500 X55.795 Y71.455 E0.0398
G1 X124.234 Y71.455 E2.2763
G1 X124.735 Y71.566 E0.0171
G1 X125.264 Y71.971 E0.0222
G1 X125.552 Y72.784 E0.0287
G1 X125.553 Y107.253 E1.1464
G1 X125.448 Y107.730 E0.0162
G1 X124.725 Y108.454 E0.0340
G1 X124.192 Y108.564 E0.0181
G1 X55.782 Y108.564 E2.2753
G1 X54.965 Y108.275 E0.0288
G1 X54.923 Y108.223 E0.0022
G1 X54.461 Y107.306 E0.0342
G1 X54.449 Y107.251 E0.0019
G1 X54.448 Y72.786 E1.1463
G1 X54.694 Y72.088 E0.0246
G0 F1500 X54.727 Y71.994
G0 F1800 X54.816 Y71.949
G0 F1800 X54.905 Y71.904
G1 F2400 E-0.4000
G1 F900 Z0.400
G0 F9000 X54.949 Y71.994
G0 X124.462 Y71.937
G0 F9000 X124.562 Y71.937
;TYPE:WALL-INNER
;WIDTH:0.400
G1 F900 Z0.200
G1 F2400 E0.4000
G1 F1500 X124.749 Y72.080 E0.0078
G1 X124.671 Y72.310 E0.0081
G1 X55.565 Y72.310 E2.2985
G1 X55.503 Y72.050 E0.0089
G1 X55.890 Y71.855 E0.0144
G1 X124.190 Y71.855 E2.2717
G1 X124.465 Y71.916 E0.0094
G0 F1500 X124.562 Y71.937
G0 F9000 X125.098 Y72.769
G0 F9000 X125.152 Y72.853
G1 F1500 X125.153 Y107.210 E1.1427
G1 X125.082 Y107.530 E0.0109
G1 X124.909 Y107.704 E0.0082
G1 X124.700 Y107.618 E0.0075
G1 X124.700 Y72.418 E1.1708
G1 X124.981 Y72.369 E0.0095
G1 X125.119 Y72.759 E0.0138
G0 F1500 X125.152 Y72.853
G1 F2400 E-0.4000
G1 F900 Z0.400
G0 F9000 X124.695 Y107.820
G0 F9000 X124.694 Y107.919
G1 F900 Z0.200
G1 F2400 E0.4000
G1 F1500 X124.527 Y108.086 E0.0079
G1 X124.151 Y108.164 E0.0128
G1 X55.851 Y108.164 E2.2717
G1 X55.361 Y107.991 E0.0173
G1 X55.409 Y107.710 E0.0095
G1 X124.608 Y107.710 E2.3016
G1 X124.656 Y107.827 E0.0042
G0 F1500 X124.694 Y107.919
G1 F2400 E-0.4000
G1 F900 Z0.400
G0 F9000 X55.559 Y107.451
G0 X55.559 Y72.569
G0 X55.710 Y72.610
G0 F9000 X55.700 Y72.710
;TYPE:WALL-OUTER
;WIDTH:0.400
G1 F900 Z0.200
G1 F2400 E0.4000
G1 F1500 X55.700 Y107.310 E1.1508
G1 X124.300 Y107.310 E2.2816
G1 X124.300 Y72.710 E1.1508
G1 X55.800 Y72.710 E2.2783
G0 F1500 X55.700 Y72.710
G0 F1800 X55.700 Y72.810
G0 F1800 X55.700 Y72.910
G0 F9000 X55.349 Y72.911
G0 F9000 X55.249 Y72.911
;PRINTING_TIME: 66
;REMAINING_TIME: 7094
;LAYER:1
;Z:0.400
;HEIGHT:0.200
M106 S38
;PRINTING: pokedex_black_bottom_v2.stl
;PRINTING_ID: 0
G0 F900 Z0.400
G0 F9000 X55.290 Y72.516
G0 F9000 X55.300 Y72.417
;TYPE:WALL-INNER
;WIDTH:0.400
G1 F1725 X55.300 Y107.505 E1.1670
G1 X55.040 Y107.567 E0.0089
G1 X54.849 Y107.188 E0.0141
G1 X54.848 Y72.854 E1.1420
G1 X55.019 Y72.369 E0.0171
G1 X55.202 Y72.401 E0.0062
G0 F1725 X55.300 Y72.417
G0 F9000 X54.807 Y72.053
G0 F9000 X54.727 Y71.994
;TYPE:WALL-OUTER
;WIDTH:0.400
G1 F1725 X55.793 Y71.456 E0.0397
G1 X124.233 Y71.455 E2.2763
G1 X124.734 Y71.567 E0.0171
G1 X125.264 Y71.971 E0.0222
G1 X125.550 Y72.780 E0.0285
G1 X125.553 Y107.253 E1.1466
G1 X125.447 Y107.730 E0.0163
G1 X124.722 Y108.455 E0.0341
G1 X124.235 Y108.563 E0.0166
G1 X124.057 Y108.564 E0.0059
G1 X55.782 Y108.564 E2.2708
G1 X54.967 Y108.276 E0.0287
G1 X54.923 Y108.223 E0.0023
G1 X54.460 Y107.305 E0.0342
G1 X54.449 Y107.254 E0.0017
G1 X54.448 Y72.786 E1.1464
G1 X54.694 Y72.088 E0.0246
G0 F1725 X54.727 Y71.994
G0 F1800 X54.816 Y71.949
G0 F1800 X54.905 Y71.904
G1 F2400 E-0.4000
G1 F900 Z0.600
G0 F9000 X54.949 Y71.994
G0 X124.461 Y71.938
G0 F9000 X124.561 Y71.938
;TYPE:WALL-INNER
;WIDTH:0.400
G1 F900 Z0.400
G1 F2400 E0.4000
G1 F1725 X124.747 Y72.080 E0.0078
G1 X124.670 Y72.310 E0.0081
G1 X55.565 Y72.310 E2.2984
G1 X55.503 Y72.050 E0.0089
G1 X55.888 Y71.856 E0.0143
G1 X124.189 Y71.855 E2.2717
G1 X124.464 Y71.917 E0.0094
G0 F1725 X124.561 Y71.938
G0 F9000 X125.096 Y72.765
G0 F9000 X125.150 Y72.849
G1 F1725 X125.153 Y107.209 E1.1428
G1 X125.082 Y107.530 E0.0109
G1 X124.909 Y107.703 E0.0081
G1 X124.700 Y107.616 E0.0075
G1 X124.700 Y72.418 E1.1707
G1 X124.981 Y72.370 E0.0095
G1 X125.117 Y72.755 E0.0136
G0 F1725 X125.150 Y72.849
G1 F2400 E-0.4000
G1 F900 Z0.600
G0 F9000 X124.694 Y107.820
G0 F9000 X124.693 Y107.919
G1 F900 Z0.400
G1 F2400 E0.4000
G1 F1725 X124.522 Y108.090 E0.0080
G1 X124.190 Y108.163 E0.0113
G1 X124.056 Y108.164 E0.0045
G1 X55.851 Y108.164 E2.2685
G1 X55.361 Y107.991 E0.0173
G1 X55.409 Y107.710 E0.0095
G1 X124.606 Y107.710 E2.3015
G1 X124.655 Y107.827 E0.0042
G0 F1725 X124.693 Y107.919
G1 F2400 E-0.4000
G1 F900 Z0.600
G0 F9000 X55.559 Y107.451
G0 X55.559 Y72.569
G0 X55.710 Y72.610
G0 F9000 X55.700 Y72.710
;TYPE:WALL-OUTER
;WIDTH:0.400
G1 F900 Z0.400
G1 F2400 E0.4000
G1 F1725 X55.700 Y107.310 E1.1508
G1 X124.300 Y107.310 E2.2816
G1 X124.300 Y72.710 E1.1508
G1 X55.800 Y72.710 E2.2783
G0 F1725 X55.700 Y72.710
G0 F1800 X55.700 Y72.810
G0 F1800 X55.700 Y72.910
G0 F9000 X55.349 Y72.911
G0 F9000 X55.249 Y72.911
;PRINTING_TIME: 98
;REMAINING_TIME: 7061
;LAYER:2
;Z:0.600
;HEIGHT:0.200
;PRINTING: pokedex_black_bottom_v2.stl
;PRINTING_ID: 0
G0 F900 Z0.600
G0 F9000 X55.290 Y72.516
G0 F9000 X55.300 Y72.417
;TYPE:WALL-INNER
;WIDTH:0.400
G1 F1950 X55.300 Y107.506 E1.1671
G1 X55.040 Y107.568 E0.0089
G1 X54.849 Y107.189 E0.0141
G1 X54.848 Y72.854 E1.1420
G1 X55.019 Y72.369 E0.0171
G1 X55.202 Y72.401 E0.0062
G0 F1950 X55.300 Y72.417
G0 F9000 X54.807 Y72.053
G0 F9000 X54.727 Y71.994
;TYPE:WALL-OUTER
;WIDTH:0.400
G1 F1950 X55.793 Y71.456 E0.0397
G1 X124.235 Y71.455 E2.2764
G1 X124.732 Y71.565 E0.0169
G1 X125.264 Y71.971 E0.0223
G1 X125.553 Y72.786 E0.0288
G1 X125.553 Y107.253 E1.1464
G1 X125.449 Y107.727 E0.0161
G1 X124.723 Y108.456 E0.0342
G1 X124.236 Y108.563 E0.0166
G1 X55.782 Y108.564 E2.2768
G1 X54.963 Y108.274 E0.0289
G1 X54.923 Y108.224 E0.0021
G1 X54.461 Y107.308 E0.0341
G1 X54.449 Y107.254 E0.0018
G1 X54.448 Y72.786 E1.1464
G1 X54.694 Y72.088 E0.0246
G0 F1950 X54.727 Y71.994
G0 F1800 X54.816 Y71.949
G0 F1800 X54.905 Y71.904
G1 F2400 E-0.4000
G1 F900 Z0.800
G0 F9000 X54.949 Y71.994
G0 X124.459 Y71.936
G0 F9000 X124.559 Y71.936
;TYPE:WALL-INNER
;WIDTH:0.400
G1 F900 Z0.600
G1 F2400 E0.4000
G1 F1950 X124.748 Y72.080 E0.0079
G1 X124.670 Y72.310 E0.0081
G1 X55.565 Y72.310 E2.2984
G1 X55.503 Y72.050 E0.0089
G1 X55.888 Y71.856 E0.0143
G1 X124.191 Y71.855 E2.2718
G1 X124.462 Y71.915 E0.0092
G0 F1950 X124.559 Y71.936
G0 F9000 X125.099 Y72.771
G0 F9000 X125.153 Y72.855
G1 F1950 X125.153 Y107.210 E1.1427
G1 X125.083 Y107.527 E0.0108
G1 X124.909 Y107.702 E0.0082
G1 X124.700 Y107.616 E0.0075
G1 X124.700 Y72.417 E1.1707
G1 X124.981 Y72.369 E0.0095
G1 X125.120 Y72.761 E0.0138
G0 F1950 X125.153 Y72.855
G1 F2400 E-0.4000
G1 F900 Z0.800
G0 F9000 X124.695 Y107.819
G0 F9000 X124.694 Y107.918
G1 F900 Z0.600
G1 F2400 E0.4000
G1 F1950 X124.522 Y108.091 E0.0081
G1 X124.193 Y108.163 E0.0112
G1 X55.851 Y108.164 E2.2731
G1 X55.361 Y107.991 E0.0173
G1 X55.410 Y107.710 E0.0095
G1 X124.607 Y107.710 E2.3015
G1 X124.656 Y107.826 E0.0042
G0 F1950 X124.694 Y107.918
G1 F2400 E-0.4000
G1 F900 Z0.800
G0 F9000 X55.559 Y107.451
G0 X55.559 Y72.569
G0 X55.710 Y72.610
G0 F9000 X55.700 Y72.710
;TYPE:WALL-OUTER
;WIDTH:0.400
G1 F900 Z0.600
G1 F2400 E0.4000
G1 F1950 X55.700 Y107.310 E1.1508
G1 X124.300 Y107.310 E2.2816
G1 X124.300 Y72.710 E1.1508
G1 X55.800 Y72.710 E2.2783
G0 F1950 X55.700 Y72.710
G0 F1800 X55.700 Y72.810
G0 F1800 X55.700 Y72.910
G0 F9000 X55.349 Y72.911
G0 F9000 X55.249 Y72.911
;PRINTING_TIME: 127
;REMAINING_TIME: 7033
;LAYER:3
;Z:0.800
;HEIGHT:0.200
M106 S77
;PRINTING: pokedex_black_bottom_v2.stl
;PRINTING_ID: 0
G0 F900 Z0.800
G0 F9000 X55.290 Y72.516
G0 F9000 X55.300 Y72.417
;TYPE:WALL-INNER
;WIDTH:0.400
G1 F2175 X55.300 Y107.507 E1.1671
G1 X55.040 Y107.569 E0.0089
G1 X54.849 Y107.191 E0.0141
G1 X54.848 Y72.854 E1.1421
G1 X55.019 Y72.369 E0.0171
G1 X55.202 Y72.401 E0.0062
G0 F2175 X55.300 Y72.417
G0 F9000 X54.807 Y72.053
G0 F9000 X54.727 Y71.994
;TYPE:WALL-OUTER
;WIDTH:0.400
G1 F2175 X55.793 Y71.456 E0.0397
G1 X124.232 Y71.455 E2.2763
G1 X124.745 Y71.574 E0.0175
G1 X125.265 Y71.972 E0.0218
G1 X125.553 Y72.786 E0.0287
G1 X125.553 Y107.253 E1.1464
G1 X125.449 Y107.724 E0.0160
G1 X124.723 Y108.456 E0.0343
G1 X124.236 Y108.563 E0.0166
G1 X55.782 Y108.564 E2.2768
G1 X54.962 Y108.274 E0.0289
G1 X54.923 Y108.223 E0.0021
G1 X54.463 Y107.314 E0.0339
G1 X54.449 Y107.252 E0.0021
G1 X54.448 Y72.786 E1.1463
G1 X54.694 Y72.088 E0.0246
G0 F2175 X54.727 Y71.994
G0 F1800 X54.816 Y71.949
G0 F1800 X54.905 Y71.904
G1 F2400 E-0.4000
G1 F900 Z1.000
G0 F9000 X54.949 Y71.994
G0 X124.470 Y71.944
G0 F9000 X124.570 Y71.944
;TYPE:WALL-INNER
;WIDTH:0.400
G1 F900 Z0.800
G1 F2400 E0.4000
G1 F2175 X124.749 Y72.080 E0.0075
G1 X124.671 Y72.310 E0.0081
