;Sliced by ideaMaker 4.2.1.5321, 2024-02-03 22:23:35 UTC+0000
;Dimension: 180.000 180.000 180.000 0.400
;Plate Shape: 0
;Origin Center: 0
;Extruder Offset #1: 25.000 0.000
;Filament Diameter #1: 1.750
;Filament Diameter #2: 1.750
;Filament Compensation #1: 100.00
;Filament Compensation #2: 90.00
;Filament Density #1: 1240.00
;Filament Density #2: 1240.00
;Bounding Box: 15.000 165.000 15.000 165.000 0.000 0.200
;Model Gap: 0.000
M221  S100.00
M190 S0
M109 S0
START_PRINT EXTRUDER_TEMP=190 BED_TEMP=60 MESH_DO=0
;G28              			; home all axes
;M83            			; set extrusion to relative
;M117 Purge extruder
;G1 Z5 F3000            		; raise Z
;G92 E0 ;Reset Extruder
;G91 ;Relative positioning
;G1 E60 F2400 ;Introduce filament in the nozzle
;G90 ;Absolute positionning
;G92 E0 ;Reset Extruder
;G1 X5 Y5 Z0.2 F3000          	; go intro start pos
;G1 X60 E9 F800        		; thick line
;G1 X90 E5 F1000          		; medium line
;G1 X120 E3.5 F1200        	  	; slim line
;G1 X118 E-0.2 Z0.5 F1500        	; wipe
;G92 E0              		; reset extruder
;TOTAL_NUM: 1
;PRINTING_TIME: 0
;REMAINING_TIME: 1908
M83
;LAYER:0
;Z:0.200
;HEIGHT:0.200
M106 S0
;PRINTING: testBedLevelKingroon.stl
;PRINTING_ID: 0
G0 F9000 X15.591 Y164.301
G0 F900 Z0.200
G0 F9000 X15.600 Y164.400
;TYPE:WALL-INNER
;WIDTH:0.400
G1 F1800 X15.600 Y15.600 E4.9491
G1 X164.400 Y15.600 E4.9491
G1 X164.400 Y164.400 E4.9491
G1 X15.700 Y164.400 E4.9458
G0 F1800 X15.600 Y164.400
G0 F9000 X15.270 Y164.730
G0 F9000 X15.200 Y164.800
;TYPE:WALL-OUTER
;WIDTH:0.400
G1 F1800 X15.200 Y15.200 E4.9757
G1 X164.800 Y15.200 E4.9757
G1 X164.800 Y164.800 E4.9757
G1 X15.300 Y164.800 E4.9724
G0 F1800 X15.200 Y164.800
G0 X15.200 Y164.700
G0 F1800 X15.200 Y164.600
G0 F9000 X15.605 Y164.237
G0 F9000 X15.679 Y164.171
;TYPE:SOLID-FILL
;WIDTH:0.400
G1 F1800 X15.757 Y164.249 E0.0037
G0 F1800 X15.827 Y164.319
G0 F9000 X16.292 Y164.319
G0 F9000 X16.392 Y164.319
G1 F1800 X15.749 Y163.676 E0.0302
G0 F1800 X15.679 Y163.606
G0 F9000 X15.679 Y163.140
G0 F9000 X15.679 Y163.040
G1 F1800 X16.888 Y164.249 E0.0569
G0 F1800 X16.958 Y164.319
G0 F9000 X17.424 Y164.319
G0 F9000 X17.524 Y164.319
G1 F1800 X15.749 Y162.544 E0.0835
G0 F1800 X15.679 Y162.474
G0 F9000 X15.679 Y162.009
G0 F9000 X15.679 Y161.909
G1 F1800 X18.019 Y164.249 E0.1101
G0 F1800 X18.089 Y164.319
G0 F9000 X18.555 Y164.319
G0 F9000 X18.655 Y164.319
G1 F1800 X15.749 Y161.413 E0.1367
G0 F1800 X15.679 Y161.343
G0 F9000 X15.679 Y160.877
G0 F9000 X15.679 Y160.777
G1 F1800 X19.151 Y164.249 E0.1633
G0 F1800 X19.221 Y164.319
G0 F9000 X19.686 Y164.319
G0 F9000 X19.786 Y164.319
G1 F1800 X15.749 Y160.282 E0.1899
G0 F1800 X15.679 Y160.212
G0 F9000 X15.679 Y159.746
G0 F9000 X15.679 Y159.646
G1 F1800 X20.282 Y164.249 E0.2165
G0 F1800 X20.352 Y164.319
G0 F9000 X20.818 Y164.319
G0 F9000 X20.918 Y164.319
G1 F1800 X15.749 Y159.150 E0.2431
G0 F1800 X15.679 Y159.080
G0 F9000 X15.679 Y158.614
G0 F9000 X15.679 Y158.514
G1 F1800 X21.414 Y164.249 E0.2698
G0 F1800 X21.484 Y164.319
G0 F9000 X21.949 Y164.319
G0 F9000 X22.049 Y164.319
G1 F1800 X15.749 Y158.019 E0.2963
G0 F1800 X15.679 Y157.949
G0 F9000 X15.679 Y157.483
G0 F9000 X15.679 Y157.383
G1 F1800 X22.545 Y164.249 E0.3230
G0 F1800 X22.615 Y164.319
G0 F9000 X23.081 Y164.319
G0 F9000 X23.181 Y164.319
G1 F1800 X15.749 Y156.887 E0.3496
G0 F1800 X15.679 Y156.817
G0 F9000 X15.679 Y156.352
G0 F9000 X15.679 Y156.252
G1 F1800 X23.676 Y164.249 E0.3762
G0 F1800 X23.746 Y164.319
G0 F9000 X24.212 Y164.319
G0 F9000 X24.312 Y164.319
G1 F1800 X15.749 Y155.756 E0.4028
G0 F1800 X15.679 Y155.686
G0 F9000 X15.679 Y155.220
G0 F9000 X15.679 Y155.120
G1 F1800 X24.808 Y164.249 E0.4294
G0 F1800 X24.878 Y164.319
G0 F9000 X25.343 Y164.319
G0 F9000 X25.443 Y164.319
G1 F1800 X15.749 Y154.625 E0.4560
G0 F1800 X15.679 Y154.555
G0 F9000 X15.679 Y154.089
G0 F9000 X15.679 Y153.989
G1 F1800 X25.939 Y164.249 E0.4826
G0 F1800 X26.009 Y164.319
G0 F9000 X26.475 Y164.319
G0 F9000 X26.575 Y164.319
G1 F1800 X15.749 Y153.493 E0.5092
G0 F1800 X15.679 Y153.423
G0 F9000 X15.679 Y152.958
G0 F9000 X15.679 Y152.858
G1 F1800 X27.070 Y164.249 E0.5358
G0 F1800 X27.140 Y164.319
G0 F9000 X27.606 Y164.319
G0 F9000 X27.706 Y164.319
G1 F1800 X15.749 Y152.362 E0.5624
G0 F1800 X15.679 Y152.292
G0 F9000 X15.679 Y151.826
G0 F9000 X15.679 Y151.726
G1 F1800 X28.202 Y164.249 E0.5890
G0 F1800 X28.272 Y164.319
G0 F9000 X28.737 Y164.319
G0 F9000 X28.837 Y164.319
G1 F1800 X15.749 Y151.231 E0.6156
G0 F1800 X15.679 Y151.161
G0 F9000 X15.679 Y150.695
G0 F9000 X15.679 Y150.595
G1 F1800 X29.333 Y164.249 E0.6422
G0 F1800 X29.403 Y164.319
G0 F9000 X29.869 Y164.319
G0 F9000 X29.969 Y164.319
G1 F1800 X15.749 Y150.099 E0.6689
G0 F1800 X15.679 Y150.029
G0 F9000 X15.679 Y149.563
G0 F9000 X15.679 Y149.463
G1 F1800 X30.464 Y164.249 E0.6955
G0 F1800 X30.534 Y164.319
G0 F9000 X31.000 Y164.319
G0 F9000 X31.100 Y164.319
G1 F1800 X15.749 Y148.968 E0.7221
G0 F1800 X15.679 Y148.898
G0 F9000 X15.679 Y148.432
G0 F9000 X15.679 Y148.332
G1 F1800 X31.596 Y164.249 E0.7487
G0 F1800 X31.666 Y164.319
G0 F9000 X32.132 Y164.319
G0 F9000 X32.232 Y164.319
G1 F1800 X15.749 Y147.836 E0.7753
G0 F1800 X15.679 Y147.766
G0 F9000 X15.679 Y147.301
G0 F9000 X15.679 Y147.201
G1 F1800 X32.727 Y164.249 E0.8019
G0 F1800 X32.797 Y164.319
G0 F9000 X33.263 Y164.319
G0 F9000 X33.363 Y164.319
G1 F1800 X15.749 Y146.705 E0.8285
G0 F1800 X15.679 Y146.635
G0 F9000 X15.679 Y146.169
G0 F9000 X15.679 Y146.069
G1 F1800 X33.859 Y164.249 E0.8551
G0 F1800 X33.929 Y164.319
G0 F9000 X34.394 Y164.319
G0 F9000 X34.494 Y164.319
G1 F1800 X15.749 Y145.574 E0.8817
G0 F1800 X15.679 Y145.504
G0 F9000 X15.679 Y145.038
G0 F9000 X15.679 Y144.938
G1 F1800 X34.990 Y164.249 E0.9083
G0 F1800 X35.060 Y164.319
G0 F9000 X35.526 Y164.319
G0 F9000 X35.626 Y164.319
G1 F1800 X15.749 Y144.442 E0.9350
G0 F1800 X15.679 Y144.372
G0 F9000 X15.679 Y143.907
G0 F9000 X15.679 Y143.807
G1 F1800 X36.121 Y164.249 E0.9615
G0 F1800 X36.191 Y164.319
G0 F9000 X36.657 Y164.319
G0 F9000 X36.757 Y164.319
G1 F1800 X15.749 Y143.311 E0.9882
G0 F1800 X15.679 Y143.241
G0 F9000 X15.679 Y142.775
G0 F9000 X15.679 Y142.675
G1 F1800 X37.253 Y164.249 E1.0148
G0 F1800 X37.323 Y164.319
G0 F9000 X37.788 Y164.319
G0 F9000 X37.888 Y164.319
G1 F1800 X15.749 Y142.180 E1.0414
G0 F1800 X15.679 Y142.110
G0 F9000 X15.679 Y141.644
G0 F9000 X15.679 Y141.544
G1 F1800 X38.384 Y164.249 E1.0680
G0 F1800 X38.454 Y164.319
G0 F9000 X38.920 Y164.319
G0 F9000 X39.020 Y164.319
G1 F1800 X15.749 Y141.048 E1.0946
G0 F1800 X15.679 Y140.978
G0 F9000 X15.679 Y140.513
G0 F9000 X15.679 Y140.413
G1 F1800 X39.515 Y164.249 E1.1212
G0 F1800 X39.585 Y164.319
G0 F9000 X40.051 Y164.319
G0 F9000 X40.151 Y164.319
G1 F1800 X15.749 Y139.917 E1.1478
G0 F1800 X15.679 Y139.847
G0 F9000 X15.679 Y139.381
G0 F9000 X15.679 Y139.281
G1 F1800 X40.647 Y164.249 E1.1744
G0 F1800 X40.717 Y164.319
G0 F9000 X41.183 Y164.319
G0 F9000 X41.283 Y164.319
G1 F1800 X15.749 Y138.785 E1.2010
G0 F1800 X15.679 Y138.715
G0 F9000 X15.679 Y138.250
G0 F9000 X15.679 Y138.150
G1 F1800 X41.778 Y164.249 E1.2276
G0 F1800 X41.848 Y164.319
G0 F9000 X42.314 Y164.319
G0 F9000 X42.414 Y164.319
G1 F1800 X15.749 Y137.654 E1.2542
G0 F1800 X15.679 Y137.584
G0 F9000 X15.679 Y137.118
G0 F9000 X15.679 Y137.018
G1 F1800 X42.910 Y164.249 E1.2809
G0 F1800 X42.980 Y164.319
G0 F9000 X43.445 Y164.319
G0 F9000 X43.545 Y164.319
G1 F1800 X15.749 Y136.523 E1.3074
G0 F1800 X15.679 Y136.453
G0 F9000 X15.679 Y135.987
G0 F9000 X15.679 Y135.887
G1 F1800 X44.041 Y164.249 E1.3341
G0 F1800 X44.111 Y164.319
G0 F9000 X44.577 Y164.319
G0 F9000 X44.677 Y164.319
G1 F1800 X15.749 Y135.391 E1.3607
G0 F1800 X15.679 Y135.321
G0 F9000 X15.679 Y134.856
G0 F9000 X15.679 Y134.756
G1 F1800 X45.172 Y164.249 E1.3873
G0 F1800 X45.242 Y164.319
G0 F9000 X45.708 Y164.319
G0 F9000 X45.808 Y164.319
G1 F1800 X15.749 Y134.260 E1.4139
G0 F1800 X15.679 Y134.190
G0 F9000 X15.679 Y133.724
G0 F9000 X15.679 Y133.624
G1 F1800 X46.304 Y164.249 E1.4405
G0 F1800 X46.374 Y164.319
G0 F9000 X46.839 Y164.319
G0 F9000 X46.939 Y164.319
G1 F1800 X15.749 Y133.129 E1.4671
G0 F1800 X15.679 Y133.059
G0 F9000 X15.679 Y132.593
G0 F9000 X15.679 Y132.493
G1 F1800 X47.435 Y164.249 E1.4937
G0 F1800 X47.505 Y164.319
G0 F9000 X47.971 Y164.319
G0 F9000 X48.071 Y164.319
G1 F1800 X15.749 Y131.997 E1.5203
G0 F1800 X15.679 Y131.927
G0 F9000 X15.679 Y131.462
G0 F9000 X15.679 Y131.362
G1 F1800 X48.566 Y164.249 E1.5469
G0 F1800 X48.636 Y164.319
G0 F9000 X49.102 Y164.319
G0 F9000 X49.202 Y164.319
G1 F1800 X15.749 Y130.866 E1.5735
G0 F1800 X15.679 Y130.796
G0 F9000 X15.679 Y130.330
G0 F9000 X15.679 Y130.230
G1 F1800 X49.698 Y164.249 E1.6001
G0 F1800 X49.768 Y164.319
G0 F9000 X50.233 Y164.319
G0 F9000 X50.333 Y164.319
G1 F1800 X15.749 Y129.734 E1.6267
G0 F1800 X15.679 Y129.664
G0 F9000 X15.679 Y129.199
G0 F9000 X15.679 Y129.099
G1 F1800 X50.829 Y164.249 E1.6533
G0 F1800 X50.899 Y164.319
G0 F9000 X51.365 Y164.319
G0 F9000 X51.465 Y164.319
G1 F1800 X15.749 Y128.603 E1.6800
G0 F1800 X15.679 Y128.533
G0 F9000 X15.679 Y128.067
G0 F9000 X15.679 Y127.967
G1 F1800 X51.961 Y164.249 E1.7066
G0 F1800 X52.031 Y164.319
G0 F9000 X52.496 Y164.319
G0 F9000 X52.596 Y164.319
G1 F1800 X15.749 Y127.472 E1.7332
G0 F1800 X15.679 Y127.402
G0 F9000 X15.679 Y126.936
G0 F9000 X15.679 Y126.836
G1 F1800 X53.092 Y164.249 E1.7598
G0 F1800 X53.162 Y164.319
G0 F9000 X53.628 Y164.319
G0 F9000 X53.728 Y164.319
G1 F1800 X15.749 Y126.340 E1.7864
G0 F1800 X15.679 Y126.270
G0 F9000 X15.679 Y125.805
G0 F9000 X15.679 Y125.705
G1 F1800 X54.223 Y164.249 E1.8130
G0 F1800 X54.293 Y164.319
G0 F9000 X54.759 Y164.319
G0 F9000 X54.859 Y164.319
G1 F1800 X15.749 Y125.209 E1.8396
G0 F1800 X15.679 Y125.139
G0 F9000 X15.679 Y124.673
G0 F9000 X15.679 Y124.573
G1 F1800 X55.355 Y164.249 E1.8662
G0 F1800 X55.425 Y164.319
G0 F9000 X55.890 Y164.319
G0 F9000 X55.990 Y164.319
G1 F1800 X15.749 Y124.078 E1.8928
G0 F1800 X15.679 Y124.008
G0 F9000 X15.679 Y123.542
G0 F9000 X15.679 Y123.442
G1 F1800 X56.486 Y164.249 E1.9194
G0 F1800 X56.556 Y164.319
G0 F9000 X57.022 Y164.319
G0 F9000 X57.122 Y164.319
G1 F1800 X15.749 Y122.946 E1.9461
G0 F1800 X15.679 Y122.876
G0 F9000 X15.679 Y122.411
G0 F9000 X15.679 Y122.311
G1 F1800 X57.617 Y164.249 E1.9726
G0 F1800 X57.687 Y164.319
G0 F9000 X58.153 Y164.319
G0 F9000 X58.253 Y164.319
G1 F1800 X15.749 Y121.815 E1.9993
G0 F1800 X15.679 Y121.745
G0 F9000 X15.679 Y121.279
G0 F9000 X15.679 Y121.179
G1 F1800 X58.749 Y164.249 E2.0259
G0 F1800 X58.819 Y164.319
G0 F9000 X59.284 Y164.319
G0 F9000 X59.384 Y164.319
G1 F1800 X15.749 Y120.684 E2.0525
G0 F1800 X15.679 Y120.614
G0 F9000 X15.679 Y120.148
G0 F9000 X15.679 Y120.048
G1 F1800 X59.880 Y164.249 E2.0791
G0 F1800 X59.950 Y164.319
G0 F9000 X60.416 Y164.319
G0 F9000 X60.516 Y164.319
G1 F1800 X15.749 Y119.552 E2.1057
G0 F1800 X15.679 Y119.482
G0 F9000 X15.679 Y119.016
G0 F9000 X15.679 Y118.916
G1 F1800 X61.012 Y164.249 E2.1323
G0 F1800 X61.082 Y164.319
G0 F9000 X61.547 Y164.319
G0 F9000 X61.647 Y164.319
G1 F1800 X15.749 Y118.421 E2.1589
G0 F1800 X15.679 Y118.351
G0 F9000 X15.679 Y117.885
G0 F9000 X15.679 Y117.785
G1 F1800 X62.143 Y164.249 E2.1855
G0 F1800 X62.213 Y164.319
G0 F9000 X62.679 Y164.319
G0 F9000 X62.779 Y164.319
G1 F1800 X15.749 Y117.289 E2.2121
G0 F1800 X15.679 Y117.219
G0 F9000 X15.679 Y116.754
G0 F9000 X15.679 Y116.654
G1 F1800 X63.274 Y164.249 E2.2387
G0 F1800 X63.344 Y164.319
G0 F9000 X63.810 Y164.319
G0 F9000 X63.910 Y164.319
G1 F1800 X15.749 Y116.158 E2.2653
G0 F1800 X15.679 Y116.088
G0 F9000 X15.679 Y115.622
G0 F9000 X15.679 Y115.522
G1 F1800 X64.406 Y164.249 E2.2920
G0 F1800 X64.476 Y164.319
G0 F9000 X64.941 Y164.319
G0 F9000 X65.041 Y164.319
G1 F1800 X15.749 Y115.027 E2.3185
G0 F1800 X15.679 Y114.957
G0 F9000 X15.679 Y114.491
G0 F9000 X15.679 Y114.391
G1 F1800 X65.537 Y164.249 E2.3452
G0 F1800 X65.607 Y164.319
G0 F9000 X66.073 Y164.319
G0 F9000 X66.173 Y164.319
G1 F1800 X15.749 Y113.895 E2.3718
G0 F1800 X15.679 Y113.825
G0 F9000 X15.679 Y113.360
G0 F9000 X15.679 Y113.260
G1 F1800 X66.668 Y164.249 E2.3984
G0 F1800 X66.738 Y164.319
G0 F9000 X67.204 Y164.319
G0 F9000 X67.304 Y164.319
G1 F1800 X15.749 Y112.764 E2.4250
G0 F1800 X15.679 Y112.694
G0 F9000 X15.679 Y112.228
G0 F9000 X15.679 Y112.128
G1 F1800 X67.800 Y164.249 E2.4516
G0 F1800 X67.870 Y164.319
G0 F9000 X68.335 Y164.319
G0 F9000 X68.435 Y164.319
G1 F1800 X15.749 Y111.633 E2.4782
G0 F1800 X15.679 Y111.563
G0 F9000 X15.679 Y111.097
G0 F9000 X15.679 Y110.997
G1 F1800 X68.931 Y164.249 E2.5048
G0 F1800 X69.001 Y164.319
G0 F9000 X69.467 Y164.319
G0 F9000 X69.567 Y164.319
G1 F1800 X15.749 Y110.501 E2.5314
G0 F1800 X15.679 Y110.431
G0 F9000 X15.679 Y109.966
G0 F9000 X15.679 Y109.866
G1 F1800 X70.062 Y164.249 E2.5580
G0 F1800 X70.132 Y164.319
G0 F9000 X70.598 Y164.319
G0 F9000 X70.698 Y164.319
G1 F1800 X15.749 Y109.370 E2.5846
G0 F1800 X15.679 Y109.300
G0 F9000 X15.679 Y108.834
G0 F9000 X15.679 Y108.734
G1 F1800 X71.194 Y164.249 E2.6113
G0 F1800 X71.264 Y164.319
G0 F9000 X71.730 Y164.319
G0 F9000 X71.830 Y164.319
G1 F1800 X15.749 Y108.238 E2.6379
G0 F1800 X15.679 Y108.168
G0 F9000 X15.679 Y107.703
G0 F9000 X15.679 Y107.603
G1 F1800 X72.325 Y164.249 E2.6645
G0 F1800 X72.395 Y164.319
G0 F9000 X72.861 Y164.319
G0 F9000 X72.961 Y164.319
G1 F1800 X15.749 Y107.107 E2.6911
G0 F1800 X15.679 Y107.037
G0 F9000 X15.679 Y106.571
G0 F9000 X15.679 Y106.471
G1 F1800 X73.457 Y164.249 E2.7177
G0 F1800 X73.527 Y164.319
G0 F9000 X73.992 Y164.319
G0 F9000 X74.092 Y164.319
G1 F1800 X15.749 Y105.976 E2.7443
G0 F1800 X15.679 Y105.906
G0 F9000 X15.679 Y105.440
G0 F9000 X15.679 Y105.340
G1 F1800 X74.588 Y164.249 E2.7709
G0 F1800 X74.658 Y164.319
G0 F9000 X75.124 Y164.319
G0 F9000 X75.224 Y164.319
G1 F1800 X15.749 Y104.844 E2.7975
G0 F1800 X15.679 Y104.774
G0 F9000 X15.679 Y104.309
G0 F9000 X15.679 Y104.209
G1 F1800 X75.719 Y164.249 E2.8241
G0 F1800 X75.789 Y164.319
G0 F9000 X76.255 Y164.319
G0 F9000 X76.355 Y164.319
G1 F1800 X15.749 Y103.713 E2.8507
G0 F1800 X15.679 Y103.643
G0 F9000 X15.679 Y103.177
G0 F9000 X15.679 Y103.077
G1 F1800 X76.851 Y164.249 E2.8773
G0 F1800 X76.921 Y164.319
G0 F9000 X77.386 Y164.319
G0 F9000 X77.486 Y164.319
G1 F1800 X15.749 Y102.582 E2.9039
G0 F1800 X15.679 Y102.512
G0 F9000 X15.679 Y102.046
G0 F9000 X15.679 Y101.946
G1 F1800 X77.982 Y164.249 E2.9305
G0 F1800 X78.052 Y164.319
G0 F9000 X78.518 Y164.319
G0 F9000 X78.618 Y164.319
G1 F1800 X15.749 Y101.450 E2.9572
G0 F1800 X15.679 Y101.380
G0 F9000 X15.679 Y100.915
G0 F9000 X15.679 Y100.815
G1 F1800 X79.113 Y164.249 E2.9837
G0 F1800 X79.183 Y164.319
G0 F9000 X79.649 Y164.319
G0 F9000 X79.749 Y164.319
G1 F1800 X15.749 Y100.319 E3.0104
G0 F1800 X15.679 Y100.249
G0 F9000 X15.679 Y99.783
G0 F9000 X15.679 Y99.683
G1 F1800 X80.245 Y164.249 E3.0370
G0 F1800 X80.315 Y164.319
G0 F9000 X80.780 Y164.319
G0 F9000 X80.880 Y164.319
G1 F1800 X15.749 Y99.187 E3.0636
G0 F1800 X15.679 Y99.117
G0 F9000 X15.679 Y98.652
G0 F9000 X15.679 Y98.552
G1 F1800 X81.376 Y164.249 E3.0902
G0 F1800 X81.446 Y164.319
G0 F9000 X81.912 Y164.319
G0 F9000 X82.012 Y164.319
G1 F1800 X15.749 Y98.056 E3.1168
G0 F1800 X15.679 Y97.986
G0 F9000 X15.679 Y97.520
G0 F9000 X15.679 Y97.420
G1 F1800 X82.508 Y164.249 E3.1434
G0 F1800 X82.578 Y164.319
G0 F9000 X83.043 Y164.319
G0 F9000 X83.143 Y164.319
G1 F1800 X15.749 Y96.925 E3.1700
G0 F1800 X15.679 Y96.855
G0 F9000 X15.679 Y96.389
G0 F9000 X15.679 Y96.289
G1 F1800 X83.639 Y164.249 E3.1966
G0 F1800 X83.709 Y164.319
G0 F9000 X84.175 Y164.319
G0 F9000 X84.275 Y164.319
G1 F1800 X15.749 Y95.793 E3.2233
G0 F1800 X15.679 Y95.723
G0 F9000 X15.679 Y95.258
G0 F9000 X15.679 Y95.158
G1 F1800 X84.770 Y164.249 E3.2498
G0 F1800 X84.840 Y164.319
G0 F9000 X85.306 Y164.319
G0 F9000 X85.406 Y164.319
G1 F1800 X15.749 Y94.662 E3.2765
G0 F1800 X15.679 Y94.592
G0 F9000 X15.679 Y94.126
G0 F9000 X15.679 Y94.026
G1 F1800 X85.902 Y164.249 E3.3031
G0 F1800 X85.972 Y164.319
G0 F9000 X86.437 Y164.319
G0 F9000 X86.537 Y164.319
G1 F1800 X15.749 Y93.531 E3.3297
G0 F1800 X15.679 Y93.461
G0 F9000 X15.679 Y92.995
G0 F9000 X15.679 Y92.895
G1 F1800 X87.033 Y164.249 E3.3563
G0 F1800 X87.103 Y164.319
G0 F9000 X87.569 Y164.319
